; generated by Slic3r 1.0.0RC2 on 2014-09-09 at 22:33:17

; layer_height = 0.30
; perimeters = 3
; top_solid_layers = 3
; bottom_solid_layers = 3
; fill_density = 0.3
; perimeter_speed = 30
; infill_speed = 50
; travel_speed = 90
; nozzle_diameter = 0.4
; filament_diameter = 1.75
; extrusion_multiplier = 1
; perimeters extrusion width = 0.40mm
; infill extrusion width = 0.42mm
; solid infill extrusion width = 0.42mm
; top infill extrusion width = 0.42mm
; first layer extrusion width = 0.60mm

G21 ; set units to millimeters
M109 S200;set extruder temp and start heating
G28 X0 Y0 Z0;home X and Y and Z
G29 ;probe bed
G90; set absolute coordinates
G92 E0; reset extruder distance
G1 Z3 F3000; get out of the bed after probe
G1 X10 Y10 F3000 ; move to back right corner
G90 ; use absolute coordinates
G92 E0
M82 ; use absolute distances for extrusion
M106 S204
G1 F1800.000 E-4.00000
G92 E0
G1 Z0.300 F5400.000
G1 X39.428 Y35.502 F5400.000
G1 E4.00000 F1800.000
G1 X40.168 Y34.942 E4.06448 F630.000
G1 X41.028 Y34.582 E4.12926
G1 X41.948 Y34.462 E4.19372
G1 X45.938 Y34.462 E4.47096
G1 X47.068 Y34.652 E4.55057
G1 X48.078 Y35.182 E4.62983
G1 X48.868 Y36.002 E4.70894
G1 X68.728 Y64.862 E7.14311
G1 X68.928 Y65.192 E7.16992
G1 X69.238 Y65.802 E7.21747
G1 X69.438 Y66.442 E7.26406
G1 X69.558 Y67.052 E7.30725
G1 X69.608 Y67.722 E7.35394
G1 X69.588 Y73.912 E7.78403
G1 X68.108 Y122.642 E11.17145
G1 X68.018 Y123.292 E11.21705
G1 X67.838 Y123.932 E11.26324
G1 X67.628 Y124.432 E11.30092
G1 X67.298 Y125.042 E11.34911
G1 X66.868 Y125.602 E11.39817
G1 X66.648 Y125.852 E11.42131
G1 X66.168 Y126.262 E11.46517
G1 X65.888 Y126.472 E11.48949
G1 X65.588 Y126.652 E11.51380
G1 X64.978 Y126.962 E11.56134
G1 X64.338 Y127.162 E11.60793
G1 X63.728 Y127.282 E11.65112
G1 X63.068 Y127.332 E11.69711
G1 X45.948 Y127.332 E12.88665
G1 X45.568 Y127.312 E12.91309
G1 X44.728 Y127.222 E12.97179
G1 X44.168 Y127.112 E13.01144
G1 X43.348 Y126.862 E13.07100
G1 X42.768 Y126.622 E13.11462
G1 X42.318 Y126.392 E13.14973
G1 X41.508 Y125.892 E13.21587
G1 X41.248 Y125.692 E13.23866
G1 X40.778 Y125.282 E13.28200
G1 X40.198 Y124.672 E13.34048
G1 X39.918 Y124.312 E13.37217
G1 X39.558 Y123.792 E13.41612
G1 X39.268 Y123.292 E13.45628
G1 X38.998 Y122.722 E13.50010
G1 X38.838 Y122.322 E13.53003
G1 X38.608 Y121.572 E13.58454
G1 X38.448 Y120.752 E13.64259
G1 X38.388 Y120.002 E13.69487
G1 X38.388 Y38.022 E19.39101
G1 X38.508 Y37.102 E19.45547
G1 X38.868 Y36.242 E19.52025
G1 X39.377 Y35.569 E19.57892
G1 X40.168 Y34.942 F4320.000 E19.17965
G1 X41.028 Y34.582 F4320.000 E18.81062
G1 X41.948 Y34.462 F4320.000 E18.44336
G1 X45.938 Y34.462 F4320.000 E16.86399
G1 X47.068 Y34.652 F4320.000 E16.41042
G1 X48.078 Y35.182 F4320.000 E15.95893
G1 X48.393 Y35.510 F4320.000 E15.77892
G1 F1800.000 E15.57892
G92 E0
G1 X50.447 Y68.973 F5400.000
G1 E4.00000 F1800.000
G1 X50.938 Y68.841 E4.03532 F630.000
G1 X51.413 Y68.765 E4.06877
G1 X51.693 Y68.742 E4.08832
G1 X52.202 Y68.742 E4.12365
G1 X52.708 Y68.795 E4.15898
G1 X53.205 Y68.901 E4.19430
G1 X53.688 Y69.058 E4.22962
G1 X54.153 Y69.265 E4.26496
G1 X54.593 Y69.519 E4.30028
G1 X55.004 Y69.818 E4.33561
G1 X55.382 Y70.158 E4.37093
G1 X55.575 Y70.363 E4.39049
G1 X55.877 Y70.738 E4.42392
G1 X56.154 Y71.164 E4.45925
G1 X56.385 Y71.617 E4.49458
G1 X56.567 Y72.092 E4.52990
G1 X56.699 Y72.583 E4.56523
G1 X56.745 Y72.833 E4.58291
G1 X56.798 Y73.339 E4.61824
G1 X56.798 Y73.847 E4.65356
G1 X56.745 Y74.353 E4.68889
G1 X56.639 Y74.850 E4.72421
G1 X56.482 Y75.333 E4.75955
G1 X56.275 Y75.798 E4.79487
G1 X56.021 Y76.238 E4.83019
G1 X55.877 Y76.448 E4.84787
G1 X55.557 Y76.843 E4.88319
G1 X55.198 Y77.202 E4.91852
G1 X54.803 Y77.522 E4.95384
G1 X54.376 Y77.799 E4.98917
G1 X53.923 Y78.030 E5.02450
G1 X53.449 Y78.212 E5.05982
G1 X52.958 Y78.344 E5.09514
G1 X52.455 Y78.423 E5.13048
G1 X51.947 Y78.450 E5.16581
G1 X51.440 Y78.423 E5.20113
G1 X50.938 Y78.344 E5.23646
G1 X50.664 Y78.277 E5.25601
G1 X50.207 Y78.127 E5.28945
G1 X49.742 Y77.921 E5.32478
G1 X49.302 Y77.666 E5.36011
G1 X48.891 Y77.368 E5.39543
G1 X48.513 Y77.027 E5.43076
G1 X48.173 Y76.649 E5.46608
G1 X48.018 Y76.448 E5.48375
G1 X47.741 Y76.021 E5.51908
G1 X47.510 Y75.568 E5.55441
G1 X47.328 Y75.094 E5.58973
G1 X47.196 Y74.602 E5.62506
G1 X47.117 Y74.100 E5.66038
G1 X47.090 Y73.593 E5.69572
G1 X47.115 Y73.112 E5.72916
G1 X47.150 Y72.833 E5.74871
G1 X47.256 Y72.335 E5.78404
G1 X47.413 Y71.852 E5.81936
G1 X47.620 Y71.387 E5.85470
G1 X47.860 Y70.970 E5.88813
G1 X48.018 Y70.738 E5.90768
G1 X48.338 Y70.342 E5.94301
G1 X48.697 Y69.983 E5.97834
G1 X49.093 Y69.663 E6.01366
G1 X49.519 Y69.386 E6.04899
G1 X49.972 Y69.155 E6.08432
G1 X50.368 Y69.001 E6.11384
G1 X50.607 Y69.507 F5400.000
G1 X50.835 Y69.439 E6.13036 F630.000
G1 X51.275 Y69.345 E6.16163
G1 X51.723 Y69.298 E6.19291
G1 X52.173 Y69.298 E6.22418
G1 X52.620 Y69.345 E6.25546
G1 X53.061 Y69.439 E6.28673
G1 X53.489 Y69.578 E6.31800
G1 X53.900 Y69.761 E6.34928
G1 X54.290 Y69.986 E6.38055
G1 X54.654 Y70.251 E6.41183
G1 X54.988 Y70.552 E6.44310
G1 X55.151 Y70.725 E6.45962
G1 X55.426 Y71.065 E6.49001
G1 X55.672 Y71.443 E6.52129
G1 X55.876 Y71.844 E6.55256
G1 X56.037 Y72.264 E6.58384
G1 X56.195 Y72.920 E6.63072
G1 X56.242 Y73.368 E6.66200
G1 X56.242 Y73.818 E6.69327
G1 X56.195 Y74.265 E6.72455
G1 X56.101 Y74.706 E6.75582
G1 X55.962 Y75.134 E6.78709
G1 X55.779 Y75.545 E6.81837
G1 X55.426 Y76.120 E6.86525
G1 X55.143 Y76.470 E6.89652
G1 X54.825 Y76.788 E6.92780
G1 X54.475 Y77.071 E6.95907
G1 X54.098 Y77.317 E6.99034
G1 X53.697 Y77.521 E7.02162
G1 X53.276 Y77.682 E7.05289
G1 X52.842 Y77.799 E7.08416
G1 X52.397 Y77.869 E7.11544
G1 X51.948 Y77.893 E7.14672
G1 X51.498 Y77.869 E7.17799
G1 X51.054 Y77.799 E7.20926
G1 X50.823 Y77.743 E7.22578
G1 X50.407 Y77.607 E7.25618
G1 X49.995 Y77.424 E7.28745
G1 X49.606 Y77.199 E7.31873
G1 X49.241 Y76.934 E7.35000
G1 X48.907 Y76.633 E7.38127
G1 X48.606 Y76.299 E7.41254
G1 X48.224 Y75.743 E7.45943
G1 X48.019 Y75.342 E7.49070
G1 X47.858 Y74.921 E7.52198
G1 X47.741 Y74.487 E7.55325
G1 X47.671 Y74.042 E7.58452
G1 X47.647 Y73.593 E7.61580
G1 X47.670 Y73.156 E7.64620
G1 X47.700 Y72.920 E7.66272
G1 X47.794 Y72.480 E7.69399
G1 X47.933 Y72.052 E7.72526
G1 X48.116 Y71.640 E7.75654
G1 X48.469 Y71.065 E7.80342
G1 X48.752 Y70.715 E7.83469
G1 X49.070 Y70.397 E7.86597
G1 X49.420 Y70.114 E7.89724
G1 X49.798 Y69.869 E7.92852
G1 X50.199 Y69.664 E7.95979
G1 X50.528 Y69.535 E7.98438
G1 X50.656 Y69.275 F5400.000
G1 X50.835 Y69.439 F4320.000 E7.88822
G1 X51.275 Y69.345 F4320.000 E7.71006
G1 X51.723 Y69.298 F4320.000 E7.53188
G1 X52.173 Y69.298 F4320.000 E7.35372
G1 X52.620 Y69.345 F4320.000 E7.17555
G1 X53.061 Y69.439 F4320.000 E6.99738
G1 X53.489 Y69.578 F4320.000 E6.81923
G1 X53.900 Y69.761 F4320.000 E6.64105
G1 X54.290 Y69.986 F4320.000 E6.46290
G1 X54.654 Y70.251 F4320.000 E6.28473
G1 X54.988 Y70.552 F4320.000 E6.10657
G1 X55.151 Y70.725 F4320.000 E6.01247
G1 X55.426 Y71.065 F4320.000 E5.83930
G1 X55.672 Y71.443 F4320.000 E5.66113
G1 X55.876 Y71.844 F4320.000 E5.48297
G1 X56.037 Y72.264 F4320.000 E5.30481
G1 X56.195 Y72.920 F4320.000 E5.03769
G1 X56.242 Y73.368 F4320.000 E4.85952
G1 X56.242 Y73.818 F4320.000 E4.68137
G1 X56.195 Y74.265 F4320.000 E4.50319
G1 X56.101 Y74.706 F4320.000 E4.32505
G1 X55.991 Y75.044 F4320.000 E4.18438
G1 F1800.000 E3.98438
G92 E0
G1 X56.986 Y85.907 F5400.000
G1 E4.00000 F1800.000
G1 X57.332 Y85.798 E4.02520 F630.000
G1 X57.577 Y85.750 E4.04258
G1 X58.052 Y85.742 E4.07556
G1 X58.376 Y85.791 E4.09835
G1 X58.585 Y85.846 E4.11337
G1 X58.890 Y85.967 E4.13615
G1 X59.081 Y86.069 E4.15119
G1 X59.349 Y86.257 E4.17397
G1 X59.512 Y86.400 E4.18900
G1 X59.730 Y86.644 E4.21176
G1 X59.855 Y86.820 E4.22680
G1 X60.013 Y87.108 E4.24958
G1 X60.094 Y87.309 E4.26461
G1 X60.181 Y87.625 E4.28738
G1 X60.215 Y87.835 E4.30220
G1 X60.214 Y88.346 E4.33772
G1 X60.181 Y88.561 E4.35282
G1 X60.094 Y88.876 E4.37553
G1 X59.930 Y89.239 E4.40322
G1 X59.752 Y89.513 E4.42593
G1 X59.637 Y89.654 E4.43855
G1 X59.349 Y89.929 E4.46622
G1 X59.081 Y90.116 E4.48894
G1 X58.921 Y90.203 E4.50154
G1 X57.880 Y90.593 E4.57879
G1 X58.917 Y90.980 E4.65570
G1 X59.227 Y91.164 E4.68078
G1 X59.506 Y91.394 E4.70586
G1 X59.631 Y91.524 E4.71841
G1 X59.850 Y91.811 E4.74349
G1 X60.022 Y92.128 E4.76855
G1 X60.144 Y92.468 E4.79365
G1 X60.185 Y92.644 E4.80619
G1 X60.227 Y93.002 E4.83126
G1 X60.213 Y93.363 E4.85636
G1 X60.144 Y93.717 E4.88143
G1 X60.022 Y94.057 E4.90651
G1 X59.850 Y94.374 E4.93160
G1 X59.746 Y94.522 E4.94415
G1 X59.506 Y94.791 E4.96922
G1 X59.371 Y94.912 E4.98178
G1 X59.076 Y95.119 E5.00686
G1 X58.752 Y95.279 E5.03194
G1 X58.408 Y95.388 E5.05702
G1 X58.231 Y95.423 E5.06957
G1 X57.871 Y95.450 E5.09465
G1 X57.690 Y95.443 E5.10721
G1 X57.334 Y95.388 E5.13228
G1 X56.990 Y95.279 E5.15735
G1 X56.698 Y95.136 E5.17996
G1 X56.514 Y95.021 E5.19500
G1 X56.236 Y94.791 E5.22006
G1 X56.111 Y94.661 E5.23261
G1 X55.874 Y94.343 E5.26017
G1 X55.719 Y94.057 E5.28276
G1 X55.652 Y93.890 E5.29531
G1 X55.556 Y93.541 E5.32040
G1 X55.529 Y93.363 E5.33293
G1 X55.515 Y93.183 E5.34549
G1 X55.529 Y92.822 E5.37057
G1 X55.564 Y92.609 E5.38560
G1 X55.652 Y92.296 E5.40818
G1 X55.719 Y92.128 E5.42075
G1 X55.892 Y91.811 E5.44582
G1 X56.111 Y91.524 E5.47091
G1 X56.371 Y91.274 E5.49599
G1 X56.514 Y91.164 E5.50854
G1 X56.825 Y90.980 E5.53361
G1 X57.862 Y90.593 E5.61051
G1 X56.853 Y90.218 E5.68527
G1 X56.661 Y90.116 E5.70036
G1 X56.365 Y89.907 E5.72556
G1 X56.105 Y89.654 E5.75077
G1 X55.886 Y89.365 E5.77597
G1 X55.715 Y89.045 E5.80117
G1 X55.648 Y88.876 E5.81379
G1 X55.561 Y88.561 E5.83650
G1 X55.516 Y88.201 E5.86169
G1 X55.527 Y87.835 E5.88713
G1 X55.604 Y87.448 E5.91454
G1 X55.715 Y87.140 E5.93732
G1 X55.794 Y86.977 E5.94993
G1 X55.990 Y86.671 E5.97513
G1 X56.230 Y86.400 E6.00031
G1 X56.509 Y86.168 E6.02552
G1 X56.910 Y85.942 E6.05749
G1 X57.083 Y86.475 F5400.000
G1 X57.340 Y86.373 E6.07668 F630.000
G1 X57.710 Y86.299 E6.10295
G1 X58.146 Y86.314 E6.13326
G1 X58.533 Y86.419 E6.16108
G1 X58.793 Y86.546 E6.18121
G1 X59.122 Y86.798 E6.20997
G1 X59.305 Y87.004 E6.22916
G1 X59.510 Y87.348 E6.25699
G1 X59.608 Y87.621 E6.27712
G1 X59.670 Y88.025 E6.30552
G1 X59.658 Y88.307 E6.32510
G1 X59.567 Y88.696 E6.35286
G1 X59.448 Y88.961 E6.37307
G1 X59.217 Y89.287 E6.40083
G1 X59.007 Y89.488 E6.42103
G1 X58.671 Y89.705 E6.44879
G1 X58.401 Y89.812 E6.46899
G1 X58.009 Y89.888 E6.49675
G1 X57.610 Y89.873 E6.52449
G1 X57.326 Y89.808 E6.54470
G1 X56.962 Y89.646 E6.57245
G1 X56.723 Y89.479 E6.59266
G1 X56.446 Y89.192 E6.62042
G1 X56.287 Y88.948 E6.64062
G1 X56.138 Y88.578 E6.66838
G1 X56.082 Y88.292 E6.68858
G1 X56.082 Y87.891 E6.71647
G1 X56.137 Y87.608 E6.73651
G1 X56.287 Y87.237 E6.76433
G1 X56.445 Y86.994 E6.78446
G1 X56.723 Y86.706 E6.81228
G1 X57.009 Y86.514 E6.83619
G1 X57.105 Y86.199 F5400.000
G1 X57.340 Y86.373 F4320.000 E6.72074
G1 X57.710 Y86.299 F4320.000 E6.57108
G1 X58.146 Y86.314 F4320.000 E6.39843
G1 X58.533 Y86.419 F4320.000 E6.23995
G1 X58.793 Y86.546 F4320.000 E6.12525
G1 X59.122 Y86.798 F4320.000 E5.96140
G1 X59.305 Y87.004 F4320.000 E5.85208
G1 X59.510 Y87.348 F4320.000 E5.69355
G1 X59.608 Y87.621 F4320.000 E5.57888
G1 X59.670 Y88.025 F4320.000 E5.41707
G1 X59.658 Y88.307 F4320.000 E5.30550
G1 X59.567 Y88.696 F4320.000 E5.14735
G1 X59.448 Y88.961 F4320.000 E5.03224
G1 X59.217 Y89.287 F4320.000 E4.87409
G1 X59.007 Y89.488 F4320.000 E4.75901
G1 X58.671 Y89.705 F4320.000 E4.60088
G1 X58.401 Y89.812 F4320.000 E4.48579
G1 X58.009 Y89.888 F4320.000 E4.32764
G1 X57.610 Y89.873 F4320.000 E4.16963
G1 X57.326 Y89.808 F4320.000 E4.05450
G1 X56.962 Y89.646 F4320.000 E3.89639
G1 X56.723 Y89.479 F4320.000 E3.78129
G1 X56.446 Y89.192 F4320.000 E3.62314
G1 X56.287 Y88.948 F4320.000 E3.50805
G1 X56.138 Y88.578 F4320.000 E3.34991
G1 X56.082 Y88.292 F4320.000 E3.23480
G1 X56.082 Y87.891 F4320.000 E3.07590
G1 X56.101 Y87.792 F4320.000 E3.03619
G1 F1800.000 E2.83619
G92 E0
G1 X57.719 Y91.299 F5400.000
G1 E4.00000 F1800.000
G1 X58.009 Y91.298 E4.02015 F630.000
G1 X58.414 Y91.376 E4.04884
G1 X58.670 Y91.479 E4.06799
G1 X59.016 Y91.704 E4.09668
G1 X59.215 Y91.895 E4.11583
G1 X59.452 Y92.233 E4.14452
G1 X59.565 Y92.484 E4.16367
G1 X59.659 Y92.886 E4.19235
G1 X59.670 Y93.162 E4.21151
G1 X59.607 Y93.570 E4.24020
G1 X59.514 Y93.829 E4.25935
G1 X59.303 Y94.184 E4.28804
G1 X59.119 Y94.390 E4.30719
G1 X58.791 Y94.640 E4.33588
G1 X58.414 Y94.809 E4.36457
G1 X58.009 Y94.888 E4.39326
G1 X57.733 Y94.888 E4.41241
G1 X57.328 Y94.809 E4.44110
G1 X56.964 Y94.647 E4.46879
G1 X56.726 Y94.481 E4.48894
G1 X56.439 Y94.184 E4.51763
G1 X56.289 Y93.953 E4.53677
G1 X56.172 Y93.687 E4.55692
G1 X56.083 Y93.299 E4.58461
G1 X56.073 Y93.009 E4.60476
G1 X56.135 Y92.616 E4.63245
G1 X56.228 Y92.356 E4.65160
G1 X56.439 Y92.001 E4.68029
G1 X56.726 Y91.704 E4.70898
G1 X56.951 Y91.545 E4.72813
G1 X57.328 Y91.376 E4.75682
G1 X57.636 Y91.309 E4.77872
G1 X57.846 Y91.039 F5400.000
G1 X54.732 Y91.561 F5400.000
G1 X54.800 Y92.592 E4.85053 F630.000
G1 X54.787 Y93.604 E4.92088
G1 X54.691 Y94.634 E4.99275
G1 X54.514 Y95.645 E5.06408
G1 X54.257 Y96.639 E5.13540
G1 X53.922 Y97.610 E5.20674
G1 X53.510 Y98.550 E5.27809
G1 X53.025 Y99.455 E5.34941
G1 X52.469 Y100.318 E5.42074
G1 X51.846 Y101.134 E5.49208
G1 X51.159 Y101.897 E5.56341
G1 X50.669 Y102.375 E5.61098
G1 X49.887 Y103.040 E5.68231
G1 X49.055 Y103.642 E5.75365
G1 X48.475 Y104.005 E5.80121
G1 X47.102 Y104.782 E5.91080
G1 X47.097 Y81.063 E7.55881
G1 X48.768 Y82.029 E7.69292
G1 X49.603 Y82.598 E7.76308
G1 X50.155 Y83.031 E7.81183
G1 X50.670 Y83.482 E7.85940
G1 X51.384 Y84.196 E7.92957
G1 X51.847 Y84.723 E7.97832
G1 X52.269 Y85.262 E8.02589
G1 X52.839 Y86.096 E8.09605
G1 X53.196 Y86.700 E8.14481
G1 X53.650 Y87.602 E8.21497
G1 X53.923 Y88.248 E8.26372
G1 X54.258 Y89.218 E8.33498
G1 X54.439 Y89.885 E8.38301
G1 X54.585 Y90.559 E8.43096
G1 X54.722 Y91.478 E8.49548
G1 X54.178 Y91.620 F5400.000
G1 X54.243 Y92.589 E8.56301 F504.000
G1 X54.243 Y93.263 E8.60982
G1 X54.178 Y94.233 E8.67738
G1 X54.035 Y95.205 E8.74560
G1 X53.896 Y95.847 E8.79124
G1 X53.625 Y96.791 E8.85948
G1 X53.280 Y97.710 E8.92772
G1 X52.862 Y98.599 E8.99596
G1 X52.375 Y99.452 E9.06421
G1 X51.821 Y100.263 E9.13245
G1 X51.204 Y101.027 E9.20069
G1 X50.760 Y101.509 E9.24620
G1 X50.047 Y102.184 E9.31444
G1 X49.283 Y102.801 E9.38268
G1 X48.472 Y103.355 E9.45093
G1 X47.659 Y103.826 E9.51622
G1 X47.654 Y82.023 E11.03114
G1 X48.472 Y82.501 E11.09697
G1 X49.018 Y82.863 E11.14247
G1 X49.544 Y83.254 E11.18798
G1 X50.048 Y83.672 E11.23349
G1 X50.529 Y84.116 E11.27899
G1 X51.199 Y84.822 E11.34658
G1 X51.623 Y85.333 E11.39275
G1 X52.013 Y85.859 E11.43825
G1 X52.375 Y86.405 E11.48376
G1 X52.858 Y87.249 E11.55134
G1 X53.149 Y87.846 E11.59751
G1 X53.404 Y88.450 E11.64302
G1 X53.724 Y89.378 E11.71127
G1 X53.898 Y90.014 E11.75706
G1 X54.036 Y90.658 E11.80281
G1 X54.168 Y91.537 E11.86456
G1 X54.684 Y91.852 F5400.000
G1 X52.589 Y111.041 F5400.000
G1 X53.147 Y111.138 E11.90396 F630.000
G1 X53.653 Y111.279 E11.94043
G1 X53.958 Y111.390 E11.96302
G1 X54.473 Y111.628 E12.00241
G1 X54.960 Y111.918 E12.04178
G1 X55.414 Y112.258 E12.08116
G1 X55.829 Y112.643 E12.12055
G1 X56.048 Y112.883 E12.14314
G1 X56.372 Y113.297 E12.17962
G1 X56.674 Y113.776 E12.21901
G1 X56.924 Y114.285 E12.25838
G1 X57.120 Y114.816 E12.29775
G1 X57.197 Y115.090 E12.31747
G1 X57.307 Y115.646 E12.35685
G1 X57.358 Y116.210 E12.39623
G1 X57.350 Y116.777 E12.43561
G1 X57.283 Y117.339 E12.47499
G1 X57.158 Y117.892 E12.51436
G1 X56.975 Y118.429 E12.55374
G1 X56.863 Y118.689 E12.57344
G1 X56.599 Y119.190 E12.61281
G1 X56.283 Y119.661 E12.65219
G1 X55.920 Y120.097 E12.69159
G1 X55.722 Y120.300 E12.71127
G1 X55.296 Y120.673 E12.75065
G1 X54.833 Y121.000 E12.79003
G1 X54.338 Y121.276 E12.82941
G1 X54.081 Y121.394 E12.84911
G1 X53.549 Y121.590 E12.88848
G1 X52.999 Y121.729 E12.92787
G1 X52.014 Y121.860 E12.99691
G1 X51.026 Y121.753 E13.06598
G1 X50.473 Y121.628 E13.10536
G1 X49.937 Y121.445 E13.14473
G1 X49.422 Y121.207 E13.18411
G1 X48.935 Y120.917 E13.22350
G1 X48.482 Y120.578 E13.26286
G1 X48.066 Y120.192 E13.30225
G1 X47.692 Y119.766 E13.34163
G1 X47.366 Y119.303 E13.38100
G1 X47.089 Y118.808 E13.42039
