; generated by Slic3r 1.0.0RC2 on 2014-04-24 at 13:18:07

; layer_height = 0.3
; perimeters = 3
; top_solid_layers = 3
; bottom_solid_layers = 3
; fill_density = 0.4
; perimeter_speed = 30
; infill_speed = 45
; travel_speed = 90
; nozzle_diameter = 0.5
; filament_diameter = 1.75
; extrusion_multiplier = 1
; perimeters extrusion width = 0.50mm
; infill extrusion width = 0.70mm
; solid infill extrusion width = 0.70mm
; top infill extrusion width = 0.70mm
; first layer extrusion width = 0.60mm

G21 ; set units to millimeters
M109 S200;set extruder temp and start heating
G28 X0 Y0 ;home X and Y
G29 ;probe bed
G90; set absolute coordinates
G92 E0; reset extruder distance
G1 Z3 F3000; get out of the bed after probe
G1 X10 Y10 F3000 ; move to back right corner
G90 ; use absolute coordinates
G92 E0
M82 ; use absolute distances for extrusion
M106 S204
G1 F1800.000 E-2.00000
G92 E0
G1 Z0.300 F5400.000
G1 X14.354 Y36.375 F5400.000
G1 E2.00000 F1800.000
G1 X51.224 Y6.055 E5.44455 F720.000
G1 X53.354 Y4.545 E5.63295
G1 X53.764 Y4.295 E5.66760
G1 X54.194 Y4.105 E5.70152
G1 X56.444 Y3.285 E5.87432
G1 X56.904 Y3.145 E5.90902
G1 X57.384 Y3.075 E5.94402
G1 X59.564 Y2.895 E6.10186
G1 X59.884 Y2.885 E6.12497
G1 X113.124 Y3.375 E9.96686
G1 X114.044 Y3.505 E10.03390
G1 X114.904 Y3.865 E10.10118
G1 X115.634 Y4.435 E10.16801
G1 X116.194 Y5.175 E10.23497
G1 X116.554 Y6.035 E10.30225
G1 X116.674 Y6.955 E10.36919
G1 X116.674 Y93.535 E16.61669
G1 X115.464 Y112.545 E17.99120
G1 X115.234 Y113.605 E18.06947
G1 X114.684 Y114.555 E18.14868
G1 X107.314 Y123.765 E18.99985
G1 X106.534 Y124.485 E19.07645
G1 X105.574 Y124.945 E19.15326
G1 X104.524 Y125.105 E19.22991
G1 X90.394 Y125.105 E20.24951
G1 X10.784 Y124.475 E25.99424
G1 X9.764 Y124.315 E26.06874
G1 X8.834 Y123.875 E26.14298
G1 X8.074 Y123.195 E26.21657
G1 X7.534 Y122.315 E26.29107
G1 X7.264 Y121.325 E26.36512
G1 X5.354 Y105.545 E27.51209
G1 X5.324 Y105.115 E27.54319
G1 X5.324 Y93.605 E28.37374
G1 X7.934 Y47.915 E31.67604
G1 X8.194 Y45.325 E31.86388
G1 X8.284 Y44.805 E31.90196
G1 X8.454 Y44.295 E31.94075
G1 X9.484 Y41.845 E32.13252
G1 X9.694 Y41.425 E32.16641
G1 X9.964 Y41.035 E32.20064
G1 X11.864 Y38.615 E32.42265
G1 X14.287 Y36.431 E32.65807
G1 X17.994 Y33.382 F4320.000 E30.75807
G1 F1800.000 E30.65807
G92 E0
G1 X85.318 Y101.069 F5400.000
G1 E2.00000 F1800.000
G1 X85.694 Y100.707 E2.03766 F480.000
G1 X86.133 Y100.422 E2.07539
G1 X86.617 Y100.218 E2.11328
G1 X87.163 Y100.087 E2.15385
G1 X97.594 Y100.092 E2.90655
G1 X98.031 Y100.134 E2.93822
G1 X98.493 Y100.269 E2.97292
G1 X98.921 Y100.489 E3.00764
G1 X99.298 Y100.788 E3.04236
G1 X99.610 Y101.155 E3.07711
G1 X99.844 Y101.576 E3.11187
G1 X99.988 Y102.036 E3.14664
G1 X100.037 Y102.515 E3.18142
G1 X99.988 Y102.995 E3.21621
G1 X99.844 Y103.455 E3.25099
G1 X99.610 Y103.876 E3.28575
G1 X99.298 Y104.243 E3.32049
G1 X98.921 Y104.541 E3.35522
G1 X98.493 Y104.762 E3.38993
G1 X98.031 Y104.897 E3.42464
G1 X97.594 Y104.938 E3.45631
G1 X87.163 Y104.944 E4.20900
G1 X86.617 Y104.813 E4.24957
G1 X86.133 Y104.609 E4.28746
G1 X85.694 Y104.324 E4.32519
G1 X85.318 Y103.962 E4.36285
G1 X85.025 Y103.529 E4.40059
G1 X84.837 Y103.039 E4.43849
G1 X84.772 Y102.515 E4.47654
G1 X84.837 Y101.992 E4.51459
G1 X85.025 Y101.502 E4.55249
G1 X85.270 Y101.140 E4.58396
G1 X85.736 Y101.483 F5400.000
G1 X86.055 Y101.162 E4.61662 F480.000
G1 X86.405 Y100.935 E4.64667
G1 X86.798 Y100.769 E4.67745
G1 X87.232 Y100.665 E4.70963
G1 X97.567 Y100.671 E5.45542
G1 X97.922 Y100.705 E5.48115
G1 X98.277 Y100.809 E5.50787
G1 X98.606 Y100.978 E5.53453
G1 X98.894 Y101.206 E5.56109
G1 X99.132 Y101.486 E5.58756
G1 X99.309 Y101.805 E5.61393
G1 X99.419 Y102.153 E5.64024
G1 X99.456 Y102.515 E5.66651
G1 X99.419 Y102.878 E5.69278
G1 X99.309 Y103.225 E5.71909
G1 X99.132 Y103.545 E5.74546
G1 X98.894 Y103.824 E5.77193
G1 X98.606 Y104.053 E5.79849
G1 X98.277 Y104.222 E5.82515
G1 X97.922 Y104.326 E5.85187
G1 X97.567 Y104.360 E5.87760
G1 X87.232 Y104.365 E6.62338
G1 X86.798 Y104.261 E6.65557
G1 X86.405 Y104.095 E6.68635
G1 X86.055 Y103.869 E6.71639
G1 X85.763 Y103.588 E6.74566
G1 X85.542 Y103.260 E6.77422
G1 X85.402 Y102.897 E6.80225
G1 X85.355 Y102.515 E6.83001
G1 X85.402 Y102.134 E6.85777
G1 X85.542 Y101.771 E6.88580
G1 X85.688 Y101.555 E6.90463
G1 X85.591 Y101.054 F5400.000
G1 X86.055 Y101.162 F4320.000 E6.71582
G1 X86.405 Y100.935 F4320.000 E6.55098
G1 X86.798 Y100.769 F4320.000 E6.38217
G1 X87.232 Y100.665 F4320.000 E6.20561
G1 X90.266 Y100.667 F4320.000 E5.00463
G1 F1800.000 E4.90463
G92 E0
G1 X107.030 Y108.112 F5400.000
G1 E2.00000 F1800.000
G1 X107.206 Y107.783 E2.02691 F480.000
G1 X107.442 Y107.495 E2.05380
G1 X107.730 Y107.259 E2.08070
G1 X108.059 Y107.083 E2.10760
G1 X108.416 Y106.975 E2.13449
G1 X108.787 Y106.938 E2.16139
G1 X109.158 Y106.975 E2.18828
G1 X109.514 Y107.083 E2.21517
G1 X109.843 Y107.259 E2.24207
G1 X110.131 Y107.495 E2.26897
G1 X110.367 Y107.783 E2.29587
G1 X110.543 Y108.112 E2.32277
G1 X110.651 Y108.469 E2.34966
G1 X110.695 Y108.905 E2.38134
G1 X110.744 Y108.905 E2.38488
G1 X110.543 Y109.567 E2.43476
G1 X110.367 Y109.896 E2.46166
G1 X110.131 Y110.184 E2.48856
G1 X109.843 Y110.420 E2.51545
G1 X109.514 Y110.596 E2.54236
G1 X109.157 Y110.704 E2.56926
G1 X108.787 Y110.741 E2.59615
G1 X108.416 Y110.704 E2.62303
G1 X108.059 Y110.596 E2.64993
G1 X107.730 Y110.420 E2.67683
G1 X107.442 Y110.184 E2.70372
G1 X107.206 Y109.896 E2.73062
G1 X107.030 Y109.567 E2.75753
G1 X106.922 Y109.210 E2.78442
G1 X106.885 Y108.840 E2.81131
G1 X106.922 Y108.469 E2.83821
G1 X107.005 Y108.195 E2.85883
G1 X106.813 Y107.809 F5400.000
G1 X106.113 Y107.372 F5400.000
G1 X105.956 Y107.667 E2.88297 F720.000
G1 X105.782 Y108.242 E2.92629
G1 X105.723 Y108.840 E2.96967
G1 X105.782 Y109.437 E3.01295
G1 X105.956 Y110.012 E3.05631
G1 X106.351 Y110.751 E3.11683
G1 X103.073 Y110.684 E3.35344
G1 X103.073 Y120.078 E4.03131
G1 X91.891 Y120.078 E4.83822
G1 X91.891 Y118.930 E4.92108
G1 X102.224 Y118.930 E5.66672
G1 X102.224 Y105.085 E6.66576
G1 X99.326 Y105.102 E6.87489
G1 X100.088 Y104.207 E6.95974
G1 X100.378 Y103.684 E7.00289
G1 X100.558 Y103.112 E7.04613
G1 X100.619 Y102.515 E7.08944
G1 X100.558 Y101.918 E7.13274
G1 X100.378 Y101.347 E7.17598
G1 X100.088 Y100.824 E7.21912
G1 X99.702 Y100.370 E7.26214
G1 X98.774 Y99.636 E7.34746
G1 X98.821 Y99.503 E7.35764
G1 X101.145 Y99.503 E7.52538
G1 X104.908 Y97.407 E7.83620
G1 X105.906 Y97.407 E7.90820
G1 X105.782 Y97.818 E7.93921
G1 X105.723 Y98.416 E7.98260
G1 X105.782 Y99.013 E8.02587
G1 X105.956 Y99.588 E8.06923
G1 X106.239 Y100.118 E8.11259
G1 X106.620 Y100.583 E8.15592
G1 X107.085 Y100.964 E8.19928
G1 X107.614 Y101.247 E8.24262
G1 X108.189 Y101.421 E8.28599
G1 X108.787 Y101.480 E8.32930
G1 X109.384 Y101.421 E8.37261
G1 X109.959 Y101.247 E8.41598
G1 X110.446 Y100.987 E8.45581
G1 X110.446 Y106.269 E8.83697
G1 X109.959 Y106.008 E8.87681
G1 X109.384 Y105.834 E8.92014
G1 X108.787 Y105.775 E8.96348
G1 X108.189 Y105.834 E9.00682
G1 X107.614 Y106.008 E9.05016
G1 X107.084 Y106.292 E9.09351
G1 X106.620 Y106.673 E9.13685
G1 X106.239 Y107.137 E9.18019
G1 X106.154 Y107.296 E9.19316
G1 X105.956 Y107.667 F4320.000 E9.02642
G1 X105.782 Y108.242 F4320.000 E8.78876
G1 X105.723 Y108.840 F4320.000 E8.55080
G1 X105.782 Y109.437 F4320.000 E8.31341
G1 X105.956 Y110.012 F4320.000 E8.07554
G1 X106.351 Y110.751 F4320.000 E7.74356
G1 X105.214 Y110.728 F4320.000 E7.29316
G1 F1800.000 E7.19316
G92 E0
G1 X86.211 Y99.682 F5400.000
G1 E2.00000 F1800.000
G1 X85.333 Y100.251 E2.07551 F480.000
G1 X84.725 Y100.837 E2.13639
G1 X84.725 Y99.503 E2.23264
G1 X86.158 Y99.503 E2.33603
G1 X86.186 Y99.599 E2.34326
G1 X84.725 Y104.194 F5400.000
G1 X85.755 Y105.186 E2.44645 F480.000
G1 X84.725 Y105.192 E2.52078
G1 X84.725 Y104.281 E2.58655
G1 X84.146 Y105.774 F5400.000
G1 X84.146 Y98.924 E3.08085 F720.000
G1 X100.995 Y98.924 E4.29662
G1 X104.758 Y96.828 E4.60744
G1 X106.834 Y96.828 E4.75723
G1 X106.493 Y97.466 E4.80942
G1 X106.352 Y97.932 E4.84453
G1 X106.304 Y98.416 E4.87967
G1 X106.352 Y98.900 E4.91475
G1 X106.493 Y99.366 E4.94987
G1 X106.723 Y99.795 E4.98501
G1 X107.031 Y100.172 E5.02012
G1 X107.407 Y100.480 E5.05525
G1 X107.837 Y100.710 E5.09037
G1 X108.303 Y100.851 E5.12551
G1 X108.787 Y100.899 E5.16060
G1 X109.271 Y100.851 E5.19570
G1 X109.737 Y100.710 E5.23083
G1 X110.166 Y100.480 E5.26596
G1 X111.024 Y99.776 E5.34607
G1 X111.024 Y107.479 E5.90188
G1 X110.166 Y106.775 E5.98199
G1 X109.737 Y106.546 E6.01712
G1 X109.271 Y106.405 E6.05223
G1 X108.787 Y106.357 E6.08734
G1 X108.302 Y106.405 E6.12246
G1 X107.837 Y106.546 E6.15757
G1 X107.407 Y106.775 E6.19270
G1 X107.031 Y107.084 E6.22782
G1 X106.723 Y107.460 E6.26294
G1 X106.493 Y107.890 E6.29807
G1 X106.352 Y108.355 E6.33318
G1 X106.304 Y108.840 E6.36832
G1 X106.352 Y109.324 E6.40340
G1 X106.493 Y109.790 E6.43853
G1 X106.722 Y110.219 E6.47366
G1 X107.031 Y110.595 E6.50878
G1 X107.800 Y111.225 E6.58049
G1 X107.750 Y111.359 E6.59079
G1 X103.652 Y111.274 E6.88660
G1 X103.652 Y120.656 E7.56361
G1 X91.312 Y120.656 E8.45401
G1 X91.312 Y118.351 E8.62036
G1 X101.645 Y118.351 E9.36601
G1 X101.645 Y105.667 E10.28129
G1 X84.233 Y105.774 E11.53776
G1 X84.172 Y100.974 F4320.000 E9.63776
G1 F1800.000 E9.53776
G92 E0
G1 X109.564 Y111.397 F5400.000
G1 E2.00000 F1800.000
G1 X111.024 Y110.200 E2.13628 F480.000
G1 X111.024 Y111.427 E2.22485
G1 X109.651 Y111.399 E2.32401
G1 X109.452 Y111.973 F5400.000
G1 X104.230 Y111.865 E2.70089 F504.000
G1 X104.230 Y121.235 E3.37702
G1 X90.733 Y121.235 E4.35091
G1 X90.733 Y117.773 E4.60076
G1 X101.067 Y117.773 E5.34640
G1 X101.067 Y106.249 E6.17794
G1 X83.568 Y106.357 E7.44067
G1 X83.568 Y98.346 E8.01872
G1 X100.845 Y98.346 E9.26540
G1 X104.608 Y96.250 E9.57622
G1 X108.348 Y96.250 E9.84607
G1 X108.404 Y96.475 E9.86280
G1 X107.730 Y96.835 E9.91793
G1 X107.442 Y97.071 E9.94483
G1 X107.206 Y97.360 E9.97172
G1 X107.030 Y97.688 E9.99863
G1 X106.922 Y98.045 E10.02552
G1 X106.885 Y98.416 E10.05242
G1 X106.922 Y98.787 E10.07930
G1 X107.030 Y99.143 E10.10619
G1 X107.206 Y99.472 E10.13310
G1 X107.442 Y99.760 E10.16000
G1 X107.730 Y99.997 E10.18689
G1 X108.059 Y100.173 E10.21380
G1 X108.416 Y100.281 E10.24069
G1 X108.787 Y100.317 E10.26758
G1 X109.157 Y100.281 E10.29446
G1 X109.514 Y100.173 E10.32136
G1 X109.843 Y99.997 E10.34827
G1 X110.131 Y99.761 E10.37516
G1 X110.367 Y99.472 E10.40206
G1 X110.543 Y99.143 E10.42896
G1 X110.651 Y98.787 E10.45586
G1 X110.688 Y98.416 E10.48274
G1 X110.651 Y98.045 E10.50964
G1 X110.543 Y97.688 E10.53654
G1 X110.367 Y97.360 E10.56344
G1 X110.131 Y97.071 E10.59034
G1 X109.843 Y96.835 E10.61723
G1 X109.169 Y96.474 E10.67236
G1 X109.226 Y96.250 E10.68908
G1 X111.603 Y96.250 E10.86062
G1 X111.603 Y112.018 E11.99845
G1 X109.539 Y111.975 E12.14744
G1 X109.173 Y111.466 F5400.000
G1 X104.389 Y111.852 F4320.000 E10.24744
G1 F1800.000 E10.14744
G92 E0
G1 X69.203 Y115.148 F5400.000
G1 E2.00000 F1800.000
G1 X69.155 Y115.633 E2.03514 F480.000
G1 X69.014 Y116.099 E2.07025
G1 X68.784 Y116.528 E2.10538
G1 X68.476 Y116.904 E2.14050
G1 X68.099 Y117.213 E2.17563
G1 X67.670 Y117.443 E2.21075
G1 X67.204 Y117.584 E2.24586
G1 X66.720 Y117.632 E2.28098
G1 X66.236 Y117.584 E2.31610
G1 X65.770 Y117.443 E2.35120
G1 X65.341 Y117.213 E2.38634
G1 X64.964 Y116.904 E2.42146
G1 X64.656 Y116.528 E2.45658
G1 X64.426 Y116.099 E2.49171
G1 X64.285 Y115.633 E2.52682
G1 X64.237 Y115.148 E2.56196
G1 X64.285 Y114.665 E2.59703
G1 X64.426 Y114.199 E2.63217
G1 X64.656 Y113.769 E2.66730
G1 X64.964 Y113.393 E2.70241
G1 X65.341 Y113.084 E2.73754
G1 X65.770 Y112.855 E2.77266
G1 X66.236 Y112.714 E2.80780
G1 X66.720 Y112.666 E2.84289
G1 X67.204 Y112.714 E2.87799
G1 X67.670 Y112.855 E2.91312
G1 X68.099 Y113.084 E2.94825
G1 X68.476 Y113.393 E2.98337
G1 X68.784 Y113.769 E3.01849
G1 X69.014 Y114.199 E3.05362
G1 X69.155 Y114.665 E3.08875
G1 X69.194 Y115.062 E3.11756
G1 X68.621 Y115.149 F5400.000
G1 X68.585 Y115.520 E3.14447 F480.000
G1 X68.477 Y115.876 E3.17136
G1 X68.301 Y116.205 E3.19826
G1 X68.064 Y116.493 E3.22516
G1 X67.776 Y116.730 E3.25206
G1 X67.447 Y116.906 E3.27896
G1 X67.091 Y117.014 E3.30585
G1 X66.720 Y117.050 E3.33274
G1 X66.349 Y117.014 E3.35964
G1 X65.992 Y116.906 E3.38652
G1 X65.664 Y116.730 E3.41343
G1 X65.375 Y116.493 E3.44033
G1 X65.139 Y116.205 E3.46722
G1 X64.963 Y115.876 E3.49413
G1 X64.855 Y115.520 E3.52102
G1 X64.819 Y115.149 E3.54792
G1 X64.855 Y114.778 E3.57480
G1 X64.963 Y114.421 E3.60170
G1 X65.139 Y114.092 E3.62860
G1 X65.375 Y113.804 E3.65550
G1 X65.664 Y113.568 E3.68239
G1 X65.992 Y113.392 E3.70930
G1 X66.349 Y113.284 E3.73620
G1 X66.720 Y113.247 E3.76308
G1 X67.091 Y113.284 E3.78997
G1 X67.447 Y113.392 E3.81686
G1 X67.776 Y113.568 E3.84377
G1 X68.064 Y113.804 E3.87066
G1 X68.301 Y114.092 E3.89756
G1 X68.477 Y114.421 E3.92447
G1 X68.585 Y114.778 E3.95136
G1 X68.613 Y115.062 E3.97198
G1 X68.938 Y115.345 F5400.000
G1 X69.881 Y115.705 F5400.000
G1 X70.106 Y115.761 E3.98871 F480.000
G1 X70.106 Y118.534 E4.18881
G1 X67.333 Y118.534 E4.38890
G1 X67.276 Y118.310 E4.40562
G1 X68.422 Y117.696 E4.49940
G1 X68.887 Y117.315 E4.54276
G1 X69.267 Y116.851 E4.58610
G1 X69.840 Y115.781 E4.67362
G1 X69.881 Y114.593 F5400.000
G1 X69.267 Y113.446 E4.76741 F480.000
G1 X68.887 Y112.982 E4.81075
G1 X68.422 Y112.601 E4.85411
G1 X67.276 Y111.988 E4.94787
G1 X67.333 Y111.763 E4.96460
G1 X70.106 Y111.763 E5.16468
G1 X70.106 Y114.536 E5.36478
G1 X69.965 Y114.571 E5.37525
G1 X66.163 Y111.988 F5400.000
G1 X65.018 Y112.601 E5.46901 F720.000
G1 X64.553 Y112.982 E5.51237
G1 X64.172 Y113.446 E5.55571
G1 X63.889 Y113.976 E5.59907
G1 X63.715 Y114.551 E5.64243
G1 X63.656 Y115.148 E5.68570
G1 X63.715 Y115.746 E5.72908
G1 X63.889 Y116.321 E5.77241
G1 X64.172 Y116.851 E5.81576
G1 X64.553 Y117.316 E5.85912
G1 X65.018 Y117.696 E5.90245
G1 X66.164 Y118.309 E5.99624
G1 X66.107 Y118.534 E6.01298
G1 X49.224 Y118.534 E7.23126
G1 X49.224 Y111.763 E7.71987
G1 X66.107 Y111.763 E8.93813
G1 X66.142 Y111.904 E8.94860
G1 X70.684 Y111.185 F5400.000
G1 X70.684 Y119.113 E9.52069 F720.000
G1 X48.645 Y119.113 E11.11098
G1 X48.645 Y111.185 E11.68308
G1 X70.597 Y111.185 E13.26710
G1 X71.263 Y110.606 F5400.000
G1 X71.263 Y119.691 E13.92269 F504.000
G1 X48.067 Y119.691 E15.59646
G1 X48.067 Y110.606 E16.25206
G1 X71.176 Y110.606 E17.91957
G1 X70.973 Y111.107 F5400.000
G1 X71.135 Y115.904 F4320.000 E16.01957
G1 F1800.000 E15.91957
G92 E0
G1 X32.206 Y115.577 F5400.000
G1 E2.00000 F1800.000
G1 X32.254 Y116.061 E2.03508 F480.000
G1 X32.206 Y116.545 E2.07022
G1 X32.065 Y117.011 E2.10532
G1 X31.835 Y117.440 E2.14046
G1 X31.527 Y117.817 E2.17558
G1 X31.150 Y118.125 E2.21069
G1 X30.721 Y118.355 E2.24584
G1 X30.255 Y118.496 E2.28093
G1 X29.771 Y118.544 E2.31606
G1 X29.287 Y118.496 E2.35118
G1 X28.821 Y118.355 E2.38629
G1 X28.392 Y118.125 E2.42141
G1 X28.015 Y117.817 E2.45654
G1 X27.707 Y117.440 E2.49165
G1 X27.477 Y117.011 E2.52679
G1 X27.336 Y116.545 E2.56190
G1 X27.288 Y116.061 E2.59704
G1 X27.336 Y115.577 E2.63211
G1 X27.477 Y115.111 E2.66724
G1 X27.707 Y114.682 E2.70237
G1 X28.015 Y114.305 E2.73749
G1 X28.392 Y113.997 E2.77262
G1 X28.821 Y113.767 E2.80774
G1 X29.287 Y113.626 E2.84288
G1 X29.771 Y113.578 E2.87797
G1 X30.255 Y113.626 E2.91307
G1 X30.721 Y113.767 E2.94819
G1 X31.150 Y113.997 E2.98333
G1 X31.527 Y114.305 E3.01845
G1 X31.835 Y114.682 E3.05357
G1 X32.065 Y115.111 E3.08870
G1 X32.181 Y115.494 E3.11757
G1 X31.636 Y115.690 F5400.000
G1 X31.672 Y116.061 E3.14444 F480.000
G1 X31.636 Y116.432 E3.17135
G1 X31.528 Y116.789 E3.19824
G1 X31.352 Y117.117 E3.22514
G1 X31.116 Y117.406 E3.25204
G1 X30.827 Y117.642 E3.27893
G1 X30.498 Y117.818 E3.30584
G1 X30.142 Y117.926 E3.33273
G1 X29.771 Y117.963 E3.35962
G1 X29.400 Y117.926 E3.38652
G1 X29.043 Y117.818 E3.41341
G1 X28.715 Y117.642 E3.44031
G1 X28.426 Y117.406 E3.46721
G1 X28.190 Y117.117 E3.49410
G1 X28.014 Y116.789 E3.52101
G1 X27.906 Y116.432 E3.54790
G1 X27.870 Y116.061 E3.57480
G1 X27.906 Y115.690 E3.60168
G1 X28.014 Y115.333 E3.62858
G1 X28.190 Y115.005 E3.65549
G1 X28.426 Y114.716 E3.68238
G1 X28.715 Y114.480 E3.70928
G1 X29.043 Y114.304 E3.73618
G1 X29.400 Y114.196 E3.76308
G1 X29.771 Y114.160 E3.78996
G1 X30.142 Y114.196 E3.81685
