; generated by Slic3r 1.0.0RC2 on 2014-04-27 at 11:47:07

; layer_height = 0.3
; perimeters = 3
; top_solid_layers = 3
; bottom_solid_layers = 3
; fill_density = 0.4
; perimeter_speed = 30
; infill_speed = 40
; travel_speed = 90
; nozzle_diameter = 0.5
; filament_diameter = 1.75
; extrusion_multiplier = 1
; perimeters extrusion width = 0.50mm
; infill extrusion width = 0.70mm
; solid infill extrusion width = 0.70mm
; top infill extrusion width = 0.70mm
; first layer extrusion width = 0.60mm

G21 ; set units to millimeters
M109 S200;set extruder temp and start heating
G28 X0 Y0 ;home X and Y
G29 ;probe bed
G90; set absolute coordinates
G92 E0; reset extruder distance
G1 Z3 F2000 ; up a litte after probe
G1 X10 Y10 F3000 ; move to back right corner
G90 ; use absolute coordinates
G92 E0
M82 ; use absolute distances for extrusion
M106 S204
G1 F1800.000 E-2.00000
G92 E0
G1 Z0.300 F5400.000
G1 X23.741 Y10.421 F5400.000
G1 E2.00000 F1800.000
G1 X24.151 Y9.681 E2.06105 F720.000
G1 X24.811 Y8.641 E2.14993
G1 X25.541 Y7.681 E2.23695
G1 X26.441 Y6.871 E2.32432
G1 X27.521 Y6.071 E2.42131
G1 X28.261 Y5.601 E2.48456
G1 X29.051 Y5.231 E2.54751
G1 X30.561 Y4.641 E2.66449
G1 X31.581 Y4.341 E2.74121
G1 X33.511 Y3.931 E2.88359
G1 X34.181 Y3.821 E2.93258
G1 X36.911 Y3.541 E3.13061
G1 X39.861 Y3.411 E3.34368
G1 X42.751 Y3.401 E3.55222
G1 X97.911 Y3.861 E7.53263
G1 X98.621 Y3.911 E7.58399
G1 X100.331 Y4.111 E7.70822
G1 X101.481 Y4.341 E7.79285
G1 X102.561 Y4.781 E7.87700
G1 X103.601 Y5.311 E7.96123
G1 X104.731 Y6.041 E8.05830
G1 X105.691 Y6.991 E8.15576
G1 X106.441 Y8.121 E8.25362
G1 X106.981 Y9.151 E8.33754
G1 X107.411 Y10.181 E8.41808
G1 X107.661 Y11.281 E8.49948
G1 X116.591 Y74.741 E13.12379
G1 X116.661 Y75.711 E13.19396
G1 X116.641 Y78.631 E13.40467
G1 X116.601 Y79.261 E13.45022
G1 X116.511 Y79.901 E13.49686
G1 X116.241 Y81.221 E13.59408
G1 X115.921 Y82.281 E13.67398
G1 X115.241 Y84.031 E13.80945
G1 X114.791 Y84.971 E13.88465
G1 X113.851 Y86.581 E14.01918
G1 X113.541 Y87.061 E14.06041
G1 X113.191 Y87.521 E14.10212
G1 X112.011 Y88.911 E14.23369
G1 X111.581 Y89.361 E14.27860
G1 X111.111 Y89.781 E14.32409
G1 X109.731 Y90.891 E14.45188
G1 X109.231 Y91.251 E14.49634
G1 X108.701 Y91.571 E14.54101
G1 X107.181 Y92.381 E14.66530
G1 X106.661 Y92.621 E14.70662
G1 X106.121 Y92.831 E14.74843
G1 X104.491 Y93.361 E14.87211
G1 X103.541 Y93.591 E14.94264
G1 X101.851 Y93.871 E15.06625
G1 X100.891 Y93.961 E15.13583
G1 X99.191 Y93.991 E15.25852
G1 X56.671 Y94.591 E18.32701
G1 X25.401 Y93.921 E20.58393
G1 X24.771 Y93.871 E20.62953
G1 X24.151 Y93.771 E20.67485
G1 X22.121 Y93.331 E20.82473
G1 X21.381 Y93.121 E20.88024
G1 X20.671 Y92.831 E20.93558
G1 X18.751 Y91.911 E21.08921
G1 X18.151 Y91.591 E21.13828
G1 X17.591 Y91.211 E21.18711
G1 X15.891 Y89.911 E21.34154
G1 X15.421 Y89.501 E21.38654
G1 X14.981 Y89.061 E21.43144
G1 X13.571 Y87.481 E21.58425
G1 X13.141 Y86.941 E21.63406
G1 X12.761 Y86.351 E21.68470
G1 X11.761 Y84.591 E21.83077
G1 X11.471 Y84.021 E21.87691
G1 X6.281 Y72.361 E22.79787
G1 X5.951 Y71.431 E22.86908
G1 X5.761 Y70.461 E22.94040
G1 X5.651 Y69.541 E23.00726
G1 X5.611 Y68.391 E23.09029
G1 X5.781 Y67.251 E23.17346
G1 X6.161 Y65.711 E23.28792
G1 X23.431 Y11.211 E27.41329
G1 X23.710 Y10.502 E27.46827
G1 X24.151 Y9.681 F4320.000 E27.09931
G1 X24.811 Y8.641 F4320.000 E26.61175
G1 X25.541 Y7.681 F4320.000 E26.13436
G1 X26.441 Y6.871 F4320.000 E25.65508
G1 X26.617 Y6.741 F4320.000 E25.56827
G1 F1800.000 E25.46827
G92 E0
G1 X62.079 Y29.830 F5400.000
G1 E2.00000 F1800.000
G1 X62.255 Y29.501 E2.02691 F480.000
G1 X62.491 Y29.213 E2.05380
G1 X62.779 Y28.977 E2.08070
G1 X63.108 Y28.801 E2.10760
G1 X63.464 Y28.693 E2.13449
G1 X63.835 Y28.656 E2.16139
G1 X64.206 Y28.693 E2.18828
G1 X64.563 Y28.801 E2.21517
G1 X64.892 Y28.977 E2.24207
G1 X65.180 Y29.213 E2.26897
G1 X65.416 Y29.501 E2.29587
G1 X65.592 Y29.830 E2.32277
G1 X65.700 Y30.187 E2.34966
G1 X65.737 Y30.558 E2.37656
G1 X65.700 Y30.928 E2.40344
G1 X65.592 Y31.285 E2.43034
G1 X65.416 Y31.614 E2.45725
G1 X65.180 Y31.902 E2.48414
G1 X64.892 Y32.139 E2.51104
G1 X64.563 Y32.314 E2.53794
G1 X64.206 Y32.422 E2.56484
G1 X63.835 Y32.459 E2.59172
G1 X63.465 Y32.422 E2.61861
G1 X63.108 Y32.314 E2.64551
G1 X62.779 Y32.139 E2.67241
G1 X62.491 Y31.902 E2.69931
G1 X62.255 Y31.614 E2.72620
G1 X62.079 Y31.285 E2.75311
G1 X61.971 Y30.928 E2.78001
G1 X61.934 Y30.558 E2.80689
G1 X61.971 Y30.187 E2.83379
G1 X62.053 Y29.913 E2.85442
G1 X61.861 Y29.527 F5400.000
G1 X50.569 Y39.060 F5400.000
G1 X50.823 Y39.413 E2.88584 F480.000
G1 X51.145 Y39.931 E2.92984
G1 X51.252 Y40.386 E2.96351
G1 X51.355 Y40.660 E2.98467
G1 X51.369 Y41.094 E3.01599
G1 X51.351 Y41.657 E3.05661
G1 X51.113 Y42.436 E3.11541
G1 X50.715 Y43.034 E3.16723
G1 X50.408 Y43.407 E3.20206
G1 X49.545 Y43.969 E3.27644
G1 X48.878 Y44.171 E3.32673
G1 X48.172 Y44.211 E3.37774
G1 X47.789 Y44.148 E3.40571
G1 X47.195 Y44.009 E3.44973
G1 X46.799 Y43.763 E3.48341
G1 X46.576 Y43.662 E3.50104
G1 X46.243 Y43.388 E3.53218
G1 X45.836 Y42.891 E3.57851
G1 X45.567 Y42.489 E3.61339
G1 X45.296 Y41.596 E3.68074
G1 X45.284 Y41.211 E3.70855
G1 X45.302 Y40.650 E3.74903
G1 X45.483 Y39.976 E3.79938
G1 X45.738 Y39.566 E3.83421
G1 X46.295 Y38.887 E3.89760
G1 X46.724 Y38.536 E3.93762
G1 X47.412 Y38.250 E3.99137
G1 X47.854 Y38.135 E4.02432
G1 X48.373 Y38.083 E4.06197
G1 X49.075 Y38.183 E4.11314
G1 X49.436 Y38.319 E4.14101
G1 X49.992 Y38.572 E4.18507
G1 X50.333 Y38.890 E4.21871
G1 X50.499 Y39.009 E4.23345
G1 X50.155 Y39.475 F5400.000
G1 X50.342 Y39.735 E4.25659 F480.000
G1 X50.603 Y40.156 E4.29234
G1 X50.697 Y40.554 E4.32187
G1 X50.780 Y40.774 E4.33883
G1 X50.775 Y41.561 E4.39559
G1 X50.584 Y42.187 E4.44280
G1 X50.250 Y42.689 E4.48632
G1 X50.016 Y42.973 E4.51289
G1 X49.304 Y43.438 E4.57422
G1 X48.782 Y43.595 E4.61355
G1 X48.190 Y43.628 E4.65634
G1 X47.420 Y43.467 E4.71313
G1 X47.072 Y43.251 E4.74265
G1 X46.885 Y43.166 E4.75749
G1 X46.654 Y42.976 E4.77908
G1 X46.301 Y42.546 E4.81924
G1 X46.096 Y42.239 E4.84586
G1 X45.872 Y41.501 E4.90152
G1 X45.863 Y41.211 E4.92248
G1 X45.878 Y40.745 E4.95611
G1 X46.025 Y40.200 E4.99683
G1 X46.209 Y39.904 E5.02203
G1 X46.706 Y39.298 E5.07854
G1 X47.024 Y39.037 E5.10823
G1 X47.596 Y38.800 E5.15294
G1 X47.956 Y38.706 E5.17975
G1 X48.354 Y38.667 E5.20863
G1 X48.942 Y38.751 E5.25151
G1 X49.215 Y38.854 E5.27251
G1 X49.667 Y39.059 E5.30831
G1 X49.965 Y39.338 E5.33782
G1 X50.085 Y39.424 E5.34842
G1 X49.741 Y39.889 F5400.000
G1 X50.062 Y40.380 E5.39076 F480.000
G1 X50.142 Y40.723 E5.41614
G1 X50.204 Y40.888 E5.42890
G1 X50.199 Y41.465 E5.47052
G1 X50.055 Y41.937 E5.50613
G1 X49.784 Y42.344 E5.54136
G1 X49.623 Y42.539 E5.55967
G1 X49.064 Y42.906 E5.60795
G1 X48.687 Y43.020 E5.63632
G1 X48.209 Y43.044 E5.67087
G1 X47.644 Y42.926 E5.71251
G1 X47.346 Y42.740 E5.73789
G1 X47.194 Y42.671 E5.74993
G1 X47.065 Y42.565 E5.76195
G1 X46.766 Y42.201 E5.79595
G1 X46.625 Y41.990 E5.81432
G1 X46.448 Y41.406 E5.85828
G1 X46.442 Y41.211 E5.87240
G1 X46.454 Y40.840 E5.89917
G1 X46.567 Y40.424 E5.93026
G1 X46.681 Y40.241 E5.94583
G1 X47.117 Y39.709 E5.99545
G1 X47.325 Y39.539 E6.01484
G1 X47.781 Y39.350 E6.05050
G1 X48.058 Y39.277 E6.07117
G1 X48.336 Y39.250 E6.09127
G1 X48.810 Y39.320 E6.12586
G1 X48.993 Y39.389 E6.14000
G1 X49.341 Y39.546 E6.16754
G1 X49.670 Y39.839 E6.19933
G1 X50.313 Y39.803 F5400.000
G1 X76.264 Y41.180 F5400.000
G1 X76.408 Y40.459 E6.25239 F480.000
G1 X76.541 Y39.946 E6.29065
G1 X76.956 Y39.324 E6.34459
G1 X77.262 Y38.951 E6.37943
G1 X77.857 Y38.554 E6.43106
G1 X78.283 Y38.326 E6.46587
G1 X79.345 Y38.129 E6.54382
G1 X80.095 Y38.236 E6.59847
G1 X80.456 Y38.372 E6.62631
G1 X81.011 Y38.625 E6.67034
G1 X81.351 Y38.943 E6.70397
G1 X81.588 Y39.113 E6.72498
G1 X81.842 Y39.467 E6.75642
G1 X82.165 Y39.986 E6.80051
G1 X82.270 Y40.440 E6.83417
G1 X82.373 Y40.713 E6.85522
G1 X82.387 Y41.147 E6.88657
G1 X82.369 Y41.707 E6.92700
G1 X82.199 Y42.334 E6.97388
G1 X81.916 Y42.863 E7.01715
G1 X81.618 Y43.182 E7.04868
G1 X81.354 Y43.531 E7.08025
G1 X80.501 Y44.060 E7.15265
G1 X79.370 Y44.286 E7.23589
G1 X78.596 Y44.175 E7.29233
G1 X78.234 Y44.039 E7.32018
G1 X77.723 Y43.806 E7.36071
G1 X77.169 Y43.381 E7.41108
G1 X76.715 Y42.776 E7.46572
G1 X76.555 Y42.423 E7.49363
G1 X76.357 Y41.896 E7.53427
G1 X76.278 Y41.266 E7.58009
G1 X76.852 Y41.190 F5400.000
G1 X76.972 Y40.588 E7.62437 F480.000
G1 X77.077 Y40.186 E7.65439
G1 X77.421 Y39.669 E7.69919
G1 X77.655 Y39.385 E7.72577
G1 X78.155 Y39.050 E7.76919
G1 X78.480 Y38.877 E7.79575
G1 X79.345 Y38.715 E7.85925
G1 X79.962 Y38.804 E7.90423
G1 X80.234 Y38.907 E7.92521
G1 X80.685 Y39.112 E7.96099
G1 X80.984 Y39.391 E7.99049
G1 X81.174 Y39.528 E8.00735
G1 X81.361 Y39.788 E8.03050
G1 X81.623 Y40.210 E8.06631
G1 X81.715 Y40.608 E8.09583
G1 X81.798 Y40.827 E8.11272
G1 X81.793 Y41.613 E8.16939
G1 X81.652 Y42.129 E8.20802
G1 X81.442 Y42.524 E8.24029
G1 X81.174 Y42.809 E8.26852
G1 X80.957 Y43.097 E8.29451
G1 X80.285 Y43.514 E8.35159
G1 X79.360 Y43.698 E8.41965
G1 X78.728 Y43.606 E8.46570
G1 X78.456 Y43.504 E8.48670
G1 X78.031 Y43.311 E8.52037
G1 X77.584 Y42.966 E8.56112
G1 X77.210 Y42.467 E8.60608
G1 X77.090 Y42.202 E8.62711
G1 X76.926 Y41.764 E8.66085
G1 X76.866 Y41.276 E8.69635
G1 X77.440 Y41.200 F5400.000
G1 X77.612 Y40.426 E8.75361 F480.000
G1 X77.886 Y40.014 E8.78928
G1 X78.048 Y39.818 E8.80760
G1 X78.453 Y39.547 E8.84281
G1 X78.677 Y39.427 E8.86112
G1 X79.345 Y39.301 E8.91016
G1 X79.829 Y39.373 E8.94547
G1 X80.012 Y39.442 E8.95959
G1 X80.359 Y39.599 E8.98712
G1 X80.616 Y39.840 E9.01249
G1 X80.759 Y39.942 E9.02521
G1 X81.081 Y40.434 E9.06758
G1 X81.160 Y40.776 E9.09294
G1 X81.222 Y40.941 E9.10568
G1 X81.217 Y41.518 E9.14727
G1 X81.106 Y41.924 E9.17765
G1 X80.967 Y42.184 E9.19892
G1 X80.731 Y42.436 E9.22385
G1 X80.561 Y42.662 E9.24427
G1 X80.069 Y42.967 E9.28602
G1 X79.350 Y43.110 E9.33891
G1 X78.861 Y43.038 E9.37458
G1 X78.678 Y42.969 E9.38872
G1 X78.339 Y42.815 E9.41553
G1 X77.998 Y42.552 E9.44666
G1 X77.706 Y42.159 E9.48194
G1 X77.625 Y41.981 E9.49609
G1 X77.494 Y41.633 E9.52293
G1 X77.454 Y41.286 E9.54812
G1 X76.972 Y40.861 F5400.000
G1 X72.305 Y46.705 F5400.000
G1 X72.961 Y47.243 E9.60932 F720.000
G1 X74.574 Y49.209 E9.79282
G1 X75.773 Y51.450 E9.97621
G1 X76.510 Y53.883 E10.15964
G1 X76.759 Y56.411 E10.34297
G1 X76.510 Y58.941 E10.52638
G1 X75.773 Y61.373 E10.70974
G1 X74.574 Y63.614 E10.89314
G1 X72.961 Y65.579 E11.07658
G1 X70.996 Y67.191 E11.25996
G1 X68.755 Y68.389 E11.44334
G1 X66.323 Y69.126 E11.62670
G1 X63.794 Y69.376 E11.81012
G1 X61.265 Y69.126 E11.99345
G1 X58.833 Y68.389 E12.17688
G1 X56.591 Y67.191 E12.36027
G1 X54.627 Y65.579 E12.54366
G1 X53.014 Y63.614 E12.72708
G1 X51.817 Y61.373 E12.91040
G1 X51.079 Y58.941 E13.09377
G1 X50.830 Y56.411 E13.27720
G1 X51.079 Y53.883 E13.46056
G1 X51.817 Y51.450 E13.64399
G1 X53.014 Y49.209 E13.82731
G1 X54.626 Y47.243 E14.01078
G1 X56.591 Y45.631 E14.19419
G1 X58.833 Y44.433 E14.37758
G1 X62.893 Y43.202 E14.68369
G1 X62.893 Y43.535 E14.70771
G1 X63.794 Y43.446 E14.77306
G1 X66.323 Y43.695 E14.95647
G1 X68.755 Y44.433 E15.13983
G1 X70.996 Y45.631 E15.32321
G1 X72.238 Y46.650 E15.43914
G1 X71.938 Y47.152 F5400.000
G1 X72.550 Y47.654 E15.49623 F720.000
G1 X74.091 Y49.532 E15.67151
G1 X75.236 Y51.673 E15.84667
G1 X75.940 Y53.996 E16.02187
G1 X76.178 Y56.411 E16.19699
G1 X75.940 Y58.828 E16.37218
G1 X75.235 Y61.150 E16.54731
G1 X74.091 Y63.291 E16.72248
G1 X72.550 Y65.168 E16.89770
G1 X70.673 Y66.707 E17.07286
G1 X68.533 Y67.852 E17.24802
G1 X66.210 Y68.556 E17.42316
G1 X63.794 Y68.794 E17.59835
G1 X61.379 Y68.556 E17.77346
G1 X59.055 Y67.852 E17.94867
G1 X56.914 Y66.707 E18.12383
G1 X55.038 Y65.168 E18.29900
G1 X53.498 Y63.291 E18.47419
G1 X52.354 Y61.150 E18.64929
G1 X51.649 Y58.828 E18.82444
G1 X51.411 Y56.411 E18.99965
G1 X51.649 Y53.996 E19.17477
G1 X52.354 Y51.673 E19.34999
G1 X53.498 Y49.532 E19.52509
G1 X55.038 Y47.654 E19.70033
G1 X56.914 Y46.114 E19.87552
G1 X59.055 Y44.970 E20.05068
G1 X62.314 Y43.982 E20.29640
G1 X62.314 Y44.173 E20.31021
G1 X63.794 Y44.028 E20.41750
G1 X66.210 Y44.266 E20.59269
G1 X68.533 Y44.970 E20.76783
G1 X70.673 Y46.114 E20.94299
G1 X71.871 Y47.097 E21.05481
G1 X71.571 Y47.600 F5400.000
G1 X72.139 Y48.065 E21.10778 F504.000
G1 X73.608 Y49.855 E21.27483
G1 X74.698 Y51.895 E21.44177
G1 X75.370 Y54.110 E21.60875
G1 X75.596 Y56.411 E21.77564
G1 X75.370 Y58.714 E21.94262
G1 X74.698 Y60.928 E22.10952
G1 X73.607 Y62.968 E22.27646
G1 X72.139 Y64.757 E22.44346
G1 X70.350 Y66.224 E22.61040
G1 X68.310 Y67.315 E22.77734
G1 X66.097 Y67.986 E22.94425
G1 X63.794 Y68.213 E23.11122
G1 X61.492 Y67.986 E23.27811
G1 X59.278 Y67.315 E23.44509
G1 X57.237 Y66.224 E23.61203
G1 X55.449 Y64.757 E23.77898
G1 X53.981 Y62.968 E23.94593
G1 X52.891 Y60.928 E24.11283
G1 X52.219 Y58.714 E24.27975
G1 X51.992 Y56.411 E24.44673
G1 X52.219 Y54.110 E24.61363
G1 X52.891 Y51.895 E24.78062
G1 X53.981 Y49.855 E24.94752
G1 X55.449 Y48.065 E25.11453
G1 X57.237 Y46.598 E25.28148
G1 X59.278 Y45.507 E25.44842
G1 X61.736 Y44.762 E25.63375
G1 X61.736 Y44.812 E25.63734
G1 X63.794 Y44.609 E25.78659
G1 X66.097 Y44.836 E25.95356
G1 X68.310 Y45.507 E26.12047
G1 X70.350 Y46.598 E26.28740
G1 X71.504 Y47.545 E26.39512
G1 X72.113 Y47.396 F5400.000
G1 X72.139 Y48.065 F4320.000 E26.12990
G1 X73.608 Y49.855 F4320.000 E25.21353
G1 X74.463 Y51.455 F4320.000 E24.49512
G1 F1800.000 E24.39512
G92 E0
G1 X50.435 Y69.966 F5400.000
G1 E2.00000 F1800.000
G1 X50.854 Y70.412 E2.04415 F480.000
G1 X51.047 Y70.839 E2.07797
G1 X51.199 Y71.085 E2.09888
G1 X51.299 Y71.508 E2.13025
G1 X51.390 Y72.061 E2.17068
G1 X51.346 Y72.712 E2.21774
G1 X51.170 Y73.286 E2.26108
G1 X50.963 Y73.619 E2.28938
G1 X50.795 Y74.026 E2.32117
G1 X49.842 Y74.832 E2.41120
G1 X48.927 Y75.176 E2.48178
G1 X48.172 Y75.218 E2.53634
G1 X47.789 Y75.155 E2.56429
G1 X47.195 Y75.016 E2.60833
G1 X46.800 Y74.770 E2.64190
G1 X46.533 Y74.650 E2.66304
G1 X46.215 Y74.351 E2.69452
G1 X45.798 Y73.906 E2.73853
G1 X45.606 Y73.481 E2.77220
G1 X45.452 Y73.233 E2.79323
G1 X45.354 Y72.810 E2.82455
G1 X45.262 Y72.257 E2.86505
G1 X45.307 Y71.608 E2.91194
G1 X45.446 Y71.150 E2.94652
G1 X45.593 Y70.793 E2.97436
G1 X45.953 Y70.213 E3.02362
G1 X46.810 Y69.487 E3.10467
G1 X47.680 Y69.159 E3.17172
G1 X48.398 Y69.088 E3.22378
G1 X49.415 Y69.276 E3.29843
G1 X49.854 Y69.549 E3.33573
G1 X50.119 Y69.670 E3.35674
G1 X50.371 Y69.906 E3.38172
G1 X49.989 Y70.340 F5400.000
G1 X50.366 Y70.738 E3.42126 F480.000
G1 X50.535 Y71.112 E3.45088
G1 X50.658 Y71.310 E3.46768
G1 X50.731 Y71.621 E3.49079
G1 X50.807 Y72.081 E3.52440
G1 X50.770 Y72.616 E3.56313
G1 X50.639 Y73.045 E3.59546
G1 X50.447 Y73.354 E3.62173
G1 X50.316 Y73.671 E3.64649
G1 X49.538 Y74.328 E3.71995
G1 X48.812 Y74.601 E3.77594
G1 X48.190 Y74.635 E3.82087
G1 X47.903 Y74.587 E3.84191
G1 X47.420 Y74.474 E3.87769
G1 X47.073 Y74.259 E3.90715
G1 X46.859 Y74.162 E3.92410
G1 X46.625 Y73.942 E3.94728
G1 X46.286 Y73.580 E3.98304
G1 X46.118 Y73.208 E4.01257
G1 X45.994 Y73.009 E4.02944
G1 X45.845 Y72.237 E4.08614
G1 X45.882 Y71.703 E4.12478
G1 X45.991 Y71.345 E4.15180
G1 X46.110 Y71.058 E4.17418
G1 X46.394 Y70.600 E4.21311
G1 X47.114 Y69.991 E4.28116
G1 X47.812 Y69.728 E4.33500
G1 X48.369 Y69.672 E4.37538
G1 X49.207 Y69.829 E4.43688
G1 X49.580 Y70.061 E4.46858
G1 X49.793 Y70.157 E4.48545
G1 X49.925 Y70.281 E4.49853
G1 X49.467 Y70.645 F5400.000
G1 X49.878 Y71.064 E4.54089 F480.000
G1 X50.024 Y71.385 E4.56631
G1 X50.116 Y71.534 E4.57901
G1 X50.224 Y72.100 E4.62060
G1 X50.194 Y72.521 E4.65102
G1 X50.108 Y72.803 E4.67234
G1 X49.931 Y73.089 E4.69657
G1 X49.837 Y73.316 E4.71431
G1 X49.234 Y73.825 E4.77120
