; generated by Slic3r 1.0.0RC2 on 2014-04-24 at 13:17:22

; layer_height = 0.3
; perimeters = 3
; top_solid_layers = 3
; bottom_solid_layers = 3
; fill_density = 0.4
; perimeter_speed = 30
; infill_speed = 45
; travel_speed = 90
; nozzle_diameter = 0.5
; filament_diameter = 1.75
; extrusion_multiplier = 1
; perimeters extrusion width = 0.50mm
; infill extrusion width = 0.70mm
; solid infill extrusion width = 0.70mm
; top infill extrusion width = 0.70mm
; first layer extrusion width = 0.60mm

G21 ; set units to millimeters
M109 S200;set extruder temp and start heating
G28 X0 Y0 ;home X and Y
G29 ;probe bed
G90; set absolute coordinates
G92 E0; reset extruder distance
G1 Z3 F3000; get out of the bed after probe
G1 X10 Y10 F3000 ; move to back right corner
G90 ; use absolute coordinates
G92 E0
M82 ; use absolute distances for extrusion
M106 S204
G1 F1800.000 E-2.00000
G92 E0
G1 Z0.300 F5400.000
G1 X9.468 Y8.354 F5400.000
G1 E2.00000 F1800.000
G1 X10.208 Y7.784 E2.06740 F720.000
G1 X11.068 Y7.424 E2.13468
G1 X11.988 Y7.304 E2.20162
G1 X44.668 Y7.254 E4.55977
G1 X86.378 Y7.304 E7.56951
G1 X86.738 Y7.324 E7.59553
G1 X108.328 Y9.594 E9.16202
G1 X108.988 Y9.724 E9.21056
G1 X109.608 Y9.974 E9.25880
G1 X113.438 Y11.964 E9.57025
G1 X114.098 Y12.424 E9.62830
G1 X114.638 Y13.004 E9.68548
G1 X114.968 Y13.454 E9.72575
G1 X115.308 Y14.034 E9.77426
G1 X115.538 Y14.674 E9.82333
G1 X115.808 Y15.774 E9.90507
G1 X115.848 Y16.114 E9.92977
G1 X115.908 Y17.034 E9.99630
G1 X119.588 Y85.244 E14.92540
G1 X119.588 Y92.094 E15.41968
G1 X119.468 Y93.024 E15.48735
G1 X119.108 Y93.884 E15.55462
G1 X118.538 Y94.624 E15.62202
G1 X117.788 Y95.194 E15.69000
G1 X78.488 Y117.764 E18.96022
G1 X77.698 Y118.104 E19.02228
G1 X76.858 Y118.244 E19.08373
G1 X17.128 Y120.744 E23.39754
G1 X16.708 Y120.734 E23.42786
G1 X15.918 Y120.674 E23.48503
G1 X15.318 Y120.574 E23.52892
G1 X14.558 Y120.384 E23.58545
G1 X14.048 Y120.214 E23.62424
G1 X13.328 Y119.914 E23.68053
G1 X12.838 Y119.664 E23.72022
G1 X12.168 Y119.254 E23.77690
G1 X11.728 Y118.934 E23.81616
G1 X11.138 Y118.434 E23.87196
G1 X10.718 Y118.024 E23.91432
G1 X10.208 Y117.424 E23.97114
G1 X9.888 Y116.974 E24.01098
G1 X9.478 Y116.304 E24.06766
G1 X9.218 Y115.784 E24.10961
G1 X8.928 Y115.074 E24.16496
G1 X8.768 Y114.584 E24.20215
G1 X8.578 Y113.814 E24.25938
G1 X8.478 Y113.224 E24.30256
G1 X8.408 Y112.174 E24.37849
G1 X8.418 Y10.884 E31.68745
G1 X8.538 Y9.954 E31.75511
G1 X8.898 Y9.094 E31.82238
G1 X9.415 Y8.423 E31.88352
G1 X10.208 Y7.784 F4320.000 E31.48048
G1 X11.068 Y7.424 F4320.000 E31.11144
G1 X11.988 Y7.304 F4320.000 E30.74419
G1 X13.910 Y7.301 F4320.000 E29.98352
G1 F1800.000 E29.88352
G92 E0
G1 X16.640 Y91.715 F5400.000
G1 E2.00000 F1800.000
G1 X16.988 Y91.684 E2.02525 F480.000
G1 X17.419 Y91.722 E2.05646
G1 X17.837 Y91.834 E2.08768
G1 X18.229 Y92.017 E2.11889
G1 X18.583 Y92.265 E2.15012
G1 X18.889 Y92.571 E2.18133
G1 X19.137 Y92.925 E2.21255
G1 X19.320 Y93.317 E2.24376
G1 X19.432 Y93.735 E2.27499
G1 X19.470 Y94.166 E2.30620
G1 X19.432 Y94.597 E2.33742
G1 X19.320 Y95.015 E2.36864
G1 X19.137 Y95.407 E2.39986
G1 X18.889 Y95.761 E2.43107
G1 X18.516 Y96.115 E2.46819
G1 X18.229 Y96.315 E2.49343
G1 X17.837 Y96.498 E2.52465
G1 X17.419 Y96.610 E2.55587
G1 X16.988 Y96.648 E2.58708
G1 X16.557 Y96.610 E2.61830
G1 X16.139 Y96.498 E2.64952
G1 X15.747 Y96.315 E2.68074
G1 X15.393 Y96.067 E2.71195
G1 X15.087 Y95.761 E2.74317
G1 X14.839 Y95.407 E2.77439
G1 X14.656 Y95.015 E2.80560
G1 X14.544 Y94.597 E2.83683
G1 X14.506 Y94.166 E2.86803
G1 X14.544 Y93.735 E2.89926
G1 X14.656 Y93.317 E2.93048
G1 X14.839 Y92.925 E2.96169
G1 X15.087 Y92.571 E2.99291
G1 X15.393 Y92.265 E3.02413
G1 X15.747 Y92.017 E3.05534
G1 X16.139 Y91.834 E3.08656
G1 X16.553 Y91.723 E3.11749
G1 X16.658 Y92.294 F5400.000
G1 X16.988 Y92.265 E3.14141 F480.000
G1 X17.318 Y92.294 E3.16532
G1 X17.638 Y92.380 E3.18923
G1 X17.965 Y92.538 E3.21544
G1 X18.210 Y92.710 E3.23702
G1 X18.444 Y92.944 E3.26094
G1 X18.635 Y93.215 E3.28485
G1 X18.775 Y93.516 E3.30876
G1 X18.860 Y93.836 E3.33268
G1 X18.889 Y94.166 E3.35659
G1 X18.860 Y94.496 E3.38050
G1 X18.775 Y94.816 E3.40441
G1 X18.635 Y95.117 E3.42833
G1 X18.444 Y95.388 E3.45224
G1 X18.184 Y95.641 E3.47845
G1 X17.939 Y95.812 E3.50003
G1 X17.638 Y95.953 E3.52395
G1 X17.318 Y96.038 E3.54786
G1 X16.988 Y96.067 E3.57177
G1 X16.658 Y96.038 E3.59568
G1 X16.338 Y95.953 E3.61959
G1 X16.038 Y95.812 E3.64351
G1 X15.766 Y95.622 E3.66742
G1 X15.532 Y95.388 E3.69133
G1 X15.342 Y95.117 E3.71525
G1 X15.202 Y94.816 E3.73916
G1 X15.116 Y94.496 E3.76307
G1 X15.087 Y94.166 E3.78698
G1 X15.116 Y93.836 E3.81090
G1 X15.202 Y93.516 E3.83481
G1 X15.342 Y93.215 E3.85872
G1 X15.532 Y92.944 E3.88264
G1 X15.766 Y92.710 E3.90655
G1 X16.038 Y92.520 E3.93046
G1 X16.338 Y92.380 E3.95437
G1 X16.574 Y92.316 E3.97202
G1 X16.780 Y91.986 F5400.000
G1 X16.941 Y90.995 F5400.000
G1 X16.990 Y90.623 E3.99908 F720.000
G1 X26.931 Y90.623 E4.71640
G1 X27.229 Y90.647 E4.73796
G1 X27.464 Y90.703 E4.75538
G1 X27.687 Y90.795 E4.77280
G1 X27.892 Y90.921 E4.79022
G1 X28.076 Y91.078 E4.80764
G1 X28.233 Y91.262 E4.82506
G1 X28.359 Y91.468 E4.84248
G1 X28.451 Y91.691 E4.85990
G1 X28.508 Y91.925 E4.87732
G1 X28.531 Y92.223 E4.89888
G1 X28.531 Y96.109 E5.17925
G1 X28.508 Y96.407 E5.20082
G1 X28.451 Y96.641 E5.21824
G1 X28.359 Y96.864 E5.23566
G1 X28.233 Y97.070 E5.25308
G1 X28.076 Y97.254 E5.27050
G1 X27.892 Y97.411 E5.28791
G1 X27.687 Y97.537 E5.30533
G1 X27.463 Y97.629 E5.32276
G1 X27.229 Y97.686 E5.34017
G1 X26.931 Y97.709 E5.36174
G1 X21.152 Y97.709 E5.77875
G1 X20.116 Y99.481 E5.92687
G1 X19.577 Y100.649 E6.01969
G1 X19.153 Y101.864 E6.11252
G1 X18.846 Y103.113 E6.20534
G1 X18.662 Y104.386 E6.29816
G1 X18.600 Y105.671 E6.39099
G1 X18.662 Y106.956 E6.48382
G1 X18.833 Y108.135 E6.56981
G1 X19.153 Y109.478 E6.66944
G1 X19.577 Y110.693 E6.76227
G1 X20.116 Y111.861 E6.85509
G1 X20.500 Y112.517 E6.90992
G1 X20.483 Y112.728 E6.92521
G1 X20.354 Y113.266 E6.96516
G1 X20.142 Y113.778 E7.00511
G1 X19.853 Y114.250 E7.04506
G1 X19.493 Y114.671 E7.08501
G1 X19.072 Y115.031 E7.12497
G1 X18.600 Y115.320 E7.16492
G1 X18.088 Y115.532 E7.20487
G1 X17.550 Y115.661 E7.24482
G1 X16.988 Y115.705 E7.28550
G1 X16.426 Y115.661 E7.32618
G1 X15.888 Y115.532 E7.36613
G1 X15.376 Y115.320 E7.40608
G1 X14.904 Y115.031 E7.44603
G1 X14.483 Y114.671 E7.48599
G1 X14.124 Y114.250 E7.52594
G1 X13.834 Y113.778 E7.56589
G1 X13.622 Y113.266 E7.60584
G1 X13.493 Y112.728 E7.64579
G1 X13.477 Y112.517 E7.66108
G1 X13.860 Y111.861 E7.71591
G1 X14.399 Y110.693 E7.80874
G1 X14.824 Y109.479 E7.90156
G1 X15.130 Y108.229 E7.99439
G1 X15.315 Y106.956 E8.08721
G1 X15.376 Y105.671 E8.18004
G1 X15.315 Y104.386 E8.27287
G1 X15.143 Y103.207 E8.35886
G1 X14.824 Y101.864 E8.45849
G1 X14.399 Y100.649 E8.55131
G1 X13.860 Y99.481 E8.64414
G1 X13.445 Y98.772 E8.70345
G1 X13.445 Y94.168 E9.03564
G1 X13.817 Y94.119 E9.06270
G1 X14.110 Y95.214 E9.14447
G1 X14.336 Y95.697 E9.18299
G1 X14.642 Y96.135 E9.22151
G1 X15.020 Y96.512 E9.26003
G1 X15.457 Y96.818 E9.29855
G1 X15.941 Y97.044 E9.33708
G1 X16.456 Y97.182 E9.37559
G1 X16.988 Y97.229 E9.41412
G1 X17.520 Y97.182 E9.45263
G1 X18.036 Y97.044 E9.49115
G1 X18.519 Y96.818 E9.52968
G1 X18.957 Y96.512 E9.56821
G1 X19.334 Y96.135 E9.60673
G1 X19.640 Y95.698 E9.64524
G1 X19.866 Y95.214 E9.68377
G1 X20.004 Y94.698 E9.72230
G1 X20.051 Y94.166 E9.76081
G1 X20.004 Y93.634 E9.79933
G1 X19.866 Y93.119 E9.83786
G1 X19.640 Y92.635 E9.87638
G1 X19.334 Y92.197 E9.91490
G1 X18.957 Y91.820 E9.95343
G1 X18.519 Y91.514 E9.99195
G1 X18.036 Y91.288 E10.03047
G1 X17.025 Y91.017 E10.10598
G1 X17.023 Y90.045 F5400.000
G1 X26.954 Y90.045 E10.82258 F720.000
G1 X27.320 Y90.073 E10.84907
G1 X27.643 Y90.151 E10.87306
G1 X27.950 Y90.278 E10.89705
G1 X28.233 Y90.452 E10.92104
G1 X28.486 Y90.668 E10.94503
G1 X28.702 Y90.921 E10.96902
G1 X28.876 Y91.204 E10.99301
G1 X29.003 Y91.511 E11.01700
G1 X29.081 Y91.835 E11.04099
G1 X29.110 Y92.201 E11.06748
G1 X29.110 Y96.132 E11.35114
G1 X29.081 Y96.498 E11.37763
G1 X29.003 Y96.821 E11.40162
G1 X28.876 Y97.128 E11.42561
G1 X28.702 Y97.411 E11.44960
G1 X28.486 Y97.664 E11.47359
G1 X28.233 Y97.880 E11.49758
G1 X27.950 Y98.054 E11.52157
G1 X27.643 Y98.181 E11.54556
G1 X27.320 Y98.259 E11.56955
G1 X26.954 Y98.288 E11.59604
G1 X21.484 Y98.288 E11.99073
G1 X20.630 Y99.749 E12.11288
G1 X20.114 Y100.867 E12.20168
G1 X19.708 Y102.028 E12.29050
G1 X19.415 Y103.224 E12.37930
G1 X19.238 Y104.442 E12.46811
G1 X19.179 Y105.671 E12.55692
G1 X19.238 Y106.900 E12.64573
G1 X19.405 Y108.052 E12.72972
G1 X19.708 Y109.314 E12.82333
G1 X20.114 Y110.476 E12.91214
G1 X20.630 Y111.593 E13.00095
G1 X21.091 Y112.382 E13.06685
G1 X21.056 Y112.819 E13.09850
G1 X20.906 Y113.446 E13.14503
G1 X20.659 Y114.041 E13.19155
G1 X20.322 Y114.591 E13.23807
G1 X19.903 Y115.081 E13.28460
G1 X19.413 Y115.500 E13.33112
G1 X18.863 Y115.837 E13.37764
G1 X18.268 Y116.084 E13.42417
G1 X17.641 Y116.234 E13.47069
G1 X16.988 Y116.286 E13.51794
G1 X16.335 Y116.234 E13.56518
G1 X15.708 Y116.084 E13.61171
G1 X15.113 Y115.837 E13.65823
G1 X14.563 Y115.500 E13.70475
G1 X14.073 Y115.081 E13.75128
G1 X13.654 Y114.591 E13.79780
G1 X13.317 Y114.041 E13.84432
G1 X13.070 Y113.446 E13.89085
G1 X12.920 Y112.819 E13.93737
G1 X12.886 Y112.382 E13.96902
G1 X13.346 Y111.593 E14.03492
G1 X13.862 Y110.476 E14.12373
G1 X14.268 Y109.314 E14.21254
G1 X14.561 Y108.118 E14.30135
G1 X14.738 Y106.900 E14.39016
G1 X14.797 Y105.671 E14.47897
G1 X14.738 Y104.442 E14.56778
G1 X14.571 Y103.290 E14.65177
G1 X14.268 Y102.028 E14.74538
G1 X13.862 Y100.867 E14.83419
G1 X13.346 Y99.749 E14.92300
G1 X12.867 Y98.928 E14.99160
G1 X12.867 Y94.201 E15.33274
G1 X12.920 Y93.522 E15.38188
G1 X13.071 Y92.893 E15.42852
G1 X13.318 Y92.296 E15.47515
G1 X13.656 Y91.745 E15.52179
G1 X14.076 Y91.254 E15.56842
G1 X14.567 Y90.834 E15.61506
G1 X15.118 Y90.496 E15.66170
G1 X15.715 Y90.249 E15.70833
G1 X16.344 Y90.098 E15.75497
G1 X16.936 Y90.051 E15.79784
G1 X17.000 Y89.466 F5400.000
G1 X26.976 Y89.466 E16.51773 F504.000
G1 X27.410 Y89.500 E16.54914
G1 X27.822 Y89.599 E16.57971
G1 X28.213 Y89.761 E16.61027
G1 X28.575 Y89.982 E16.64083
G1 X28.897 Y90.258 E16.67139
G1 X29.172 Y90.580 E16.70195
G1 X29.393 Y90.941 E16.73251
G1 X29.555 Y91.332 E16.76308
G1 X29.654 Y91.744 E16.79364
G1 X29.688 Y92.178 E16.82505
G1 X29.688 Y96.154 E17.11199
G1 X29.654 Y96.588 E17.14340
G1 X29.555 Y97.000 E17.17396
G1 X29.393 Y97.391 E17.20452
G1 X29.172 Y97.753 E17.23508
G1 X28.897 Y98.075 E17.26565
G1 X28.575 Y98.350 E17.29621
G1 X28.213 Y98.571 E17.32677
G1 X27.822 Y98.733 E17.35733
G1 X27.410 Y98.832 E17.38789
G1 X26.976 Y98.866 E17.41931
G1 X21.816 Y98.866 E17.79168
G1 X21.144 Y100.017 E17.88785
G1 X20.651 Y101.084 E17.97265
G1 X20.263 Y102.193 E18.05744
G1 X19.983 Y103.334 E18.14223
G1 X19.815 Y104.497 E18.22703
G1 X19.758 Y105.671 E18.31182
G1 X19.815 Y106.845 E18.39662
G1 X19.978 Y107.969 E18.47860
G1 X20.263 Y109.149 E18.56619
G1 X20.651 Y110.258 E18.65098
G1 X21.144 Y111.325 E18.73578
G1 X21.682 Y112.246 E18.81275
G1 X21.629 Y112.910 E18.86077
G1 X21.458 Y113.625 E18.91386
G1 X21.176 Y114.305 E18.96695
G1 X20.792 Y114.932 E19.02005
G1 X20.314 Y115.492 E19.07314
G1 X19.754 Y115.970 E19.12624
G1 X19.127 Y116.354 E19.17933
G1 X18.447 Y116.636 E19.23243
G1 X17.732 Y116.807 E19.28552
G1 X16.988 Y116.866 E19.33934
G1 X16.245 Y116.807 E19.39316
G1 X15.529 Y116.636 E19.44625
G1 X14.849 Y116.354 E19.49935
G1 X14.222 Y115.970 E19.55244
G1 X13.662 Y115.492 E19.60554
G1 X13.185 Y114.932 E19.65863
G1 X12.800 Y114.305 E19.71173
G1 X12.519 Y113.625 E19.76482
G1 X12.347 Y112.910 E19.81791
G1 X12.295 Y112.246 E19.86593
G1 X12.833 Y111.325 E19.94290
G1 X13.325 Y110.258 E20.02769
G1 X13.713 Y109.149 E20.11249
G1 X13.993 Y108.008 E20.19728
G1 X14.162 Y106.845 E20.28208
G1 X14.218 Y105.671 E20.36687
G1 X14.162 Y104.497 E20.45166
G1 X13.998 Y103.373 E20.53364
G1 X13.713 Y102.193 E20.62124
G1 X13.325 Y101.084 E20.70603
G1 X12.833 Y100.017 E20.79083
G1 X12.288 Y99.085 E20.86872
G1 X12.288 Y94.178 E21.22280
G1 X12.347 Y93.431 E21.27686
G1 X12.519 Y92.714 E21.33007
G1 X12.801 Y92.033 E21.38328
G1 X13.186 Y91.404 E21.43649
G1 X13.665 Y90.843 E21.48969
G1 X14.226 Y90.364 E21.54290
G1 X14.855 Y89.979 E21.59611
G1 X15.536 Y89.697 E21.64932
G1 X16.253 Y89.525 E21.70252
G1 X16.913 Y89.473 E21.75032
G1 X17.302 Y89.959 F5400.000
G1 X22.096 Y89.715 F4320.000 E19.85032
G1 F1800.000 E19.75032
G92 E0
G1 X40.123 Y100.208 F5400.000
G1 E2.00000 F1800.000
G1 X40.616 Y99.566 E2.05845 F480.000
G1 X41.258 Y99.073 E2.11689
G1 X42.007 Y98.763 E2.17533
G1 X42.810 Y98.657 E2.23378
G1 X43.613 Y98.763 E2.29222
G1 X44.361 Y99.073 E2.35067
G1 X45.004 Y99.566 E2.40911
G1 X45.497 Y100.208 E2.46756
G1 X45.975 Y101.363 E2.55777
G1 X45.860 Y101.363 E2.56607
G1 X45.912 Y101.760 E2.59490
G1 X45.807 Y102.563 E2.65335
G1 X45.497 Y103.311 E2.71179
G1 X45.004 Y103.953 E2.77024
G1 X44.361 Y104.447 E2.82868
G1 X43.613 Y104.756 E2.88712
G1 X42.810 Y104.862 E2.94557
G1 X42.007 Y104.756 E3.00401
G1 X41.258 Y104.447 E3.06245
G1 X40.616 Y103.953 E3.12090
G1 X40.123 Y103.311 E3.17934
G1 X39.813 Y102.563 E3.23779
G1 X39.707 Y101.760 E3.29623
G1 X39.813 Y100.957 E3.35467
G1 X40.090 Y100.289 E3.40685
G1 X39.856 Y99.695 F5400.000
G1 X40.616 Y99.566 F4320.000 E3.10162
G1 X41.258 Y99.073 F4320.000 E2.78101
G1 X42.007 Y98.763 F4320.000 E2.46042
G1 X42.810 Y98.657 F4320.000 E2.13981
G1 X43.613 Y98.763 F4320.000 E1.81921
G1 X44.342 Y99.065 F4320.000 E1.50685
G1 F1800.000 E1.40685
G92 E0
G1 X50.330 Y99.980 F5400.000
G1 E2.00000 F1800.000
G1 X53.410 Y98.200 E2.25665 F480.000
G1 X56.489 Y99.980 E2.51330
G1 X56.489 Y103.539 E2.77014
G1 X53.410 Y105.319 E3.02679
G1 X50.330 Y103.539 E3.28344
G1 X50.330 Y100.067 E3.53402
G1 X50.132 Y99.436 F5400.000
G1 X53.410 Y98.200 F4320.000 E2.14748
G1 X54.533 Y98.849 F4320.000 E1.63402
G1 F1800.000 E1.53402
G92 E0
G1 X52.607 Y106.616 F5400.000
G1 E2.00000 F1800.000
G1 X53.410 Y106.510 E2.05844 F480.000
G1 X54.130 Y106.605 E2.11087
G1 X54.213 Y106.616 E2.11689
G1 X54.961 Y106.925 E2.17533
G1 X55.604 Y107.419 E2.23378
G1 X56.097 Y108.061 E2.29222
G1 X56.407 Y108.809 E2.35066
G1 X56.512 Y109.612 E2.40911
G1 X56.407 Y110.415 E2.46755
G1 X56.097 Y111.164 E2.52600
G1 X55.604 Y111.806 E2.58444
G1 X54.961 Y112.299 E2.64289
G1 X54.213 Y112.609 E2.70133
G1 X53.410 Y112.715 E2.75977
G1 X52.607 Y112.609 E2.81822
G1 X51.858 Y112.299 E2.87666
G1 X51.216 Y111.806 E2.93510
G1 X51.165 Y111.740 E2.94112
G1 X50.723 Y111.164 E2.99355
G1 X50.413 Y110.415 E3.05199
G1 X50.307 Y109.612 E3.11044
G1 X50.318 Y109.530 E3.11645
G1 X50.413 Y108.809 E3.16888
G1 X50.723 Y108.061 E3.22733
G1 X51.216 Y107.419 E3.28577
G1 X51.858 Y106.925 E3.34421
G1 X52.527 Y106.649 E3.39640
G1 X52.781 Y106.064 F5400.000
G1 X45.928 Y107.818 F5400.000
G1 X45.928 Y111.406 E3.65529 F480.000
G1 X42.810 Y113.199 E3.91482
G1 X39.692 Y111.406 E4.17435
G1 X39.692 Y107.818 E4.43324
G1 X42.810 Y106.026 E4.69277
G1 X45.852 Y107.775 E4.94604
G1 X46.497 Y107.919 F5400.000
G1 X47.085 Y107.149 F5400.000
G1 X44.601 Y105.721 E5.15277 F720.000
G1 X45.829 Y104.779 E5.26445
G1 X46.507 Y103.894 E5.34488
G1 X46.934 Y102.865 E5.42531
G1 X46.979 Y102.520 E5.45036
G1 X47.707 Y102.520 E5.50285
G1 X46.507 Y99.625 E5.72902
G1 X45.829 Y98.740 E5.80945
G1 X45.260 Y98.304 E5.86115
G1 X45.308 Y98.164 E5.87184
G1 X50.747 Y98.164 E6.26431
G1 X50.802 Y98.371 E6.27974
G1 X49.173 Y99.312 E6.41551
G1 X49.173 Y104.207 E6.76870
G1 X51.641 Y105.634 E6.97440
G1 X50.391 Y106.593 E7.08816
G1 X49.712 Y107.478 E7.16859
G1 X49.286 Y108.507 E7.24902
G1 X49.140 Y109.612 E7.32945
G1 X49.286 Y110.717 E7.40988
G1 X49.712 Y111.747 E7.49031
G1 X50.391 Y112.632 E7.57074
G1 X50.959 Y113.068 E7.62244
G1 X50.912 Y113.208 E7.63312
G1 X45.533 Y113.208 E8.02126
G1 X45.477 Y113.000 E8.03678
G1 X47.085 Y112.076 E8.17059
G1 X47.085 Y107.236 E8.51983
G1 X46.506 Y107.484 F5400.000
G1 X43.135 Y105.545 E8.80045 F720.000
G1 X43.164 Y105.399 E8.81119
G1 X43.764 Y105.320 E8.85486
G1 X44.653 Y104.952 E8.92430
G1 X45.416 Y104.366 E8.99373
G1 X46.002 Y103.603 E9.06317
G1 X46.370 Y102.714 E9.13261
G1 X46.472 Y101.942 E9.18877
