; generated by Slic3r 1.0.0RC2 on 2014-06-05 at 00:16:51

; layer_height = 0.3
; perimeters = 3
; top_solid_layers = 3
; bottom_solid_layers = 3
; fill_density = 0.3
; perimeter_speed = 35
; infill_speed = 45
; travel_speed = 90
; nozzle_diameter = 0.5
; filament_diameter = 1.75
; extrusion_multiplier = 1
; perimeters extrusion width = 0.50mm
; infill extrusion width = 0.70mm
; solid infill extrusion width = 0.70mm
; top infill extrusion width = 0.70mm
; first layer extrusion width = 0.60mm

G21 ; set units to millimeters
M109 S200;set extruder temp and start heating
G28 X0 Y0 Z0;home X and Y and Z
G29 ;probe bed
G90; set absolute coordinates
G92 E0; reset extruder distance
G1 Z3 F3000; get out of the bed after probe
G1 X10 Y10 F3000 ; move to back right corner
G90 ; use absolute coordinates
G92 E0
M82 ; use absolute distances for extrusion
M106 S204
G1 F1800.000 E-3.00000
G92 E0
G1 Z0.300 F5400.000
G1 X14.947 Y39.135 F5400.000
G1 E3.00000 F1800.000
G1 X51.817 Y8.815 E6.44455 F735.000
G1 X53.947 Y7.305 E6.63295
G1 X54.357 Y7.055 E6.66760
G1 X54.787 Y6.865 E6.70152
G1 X57.037 Y6.045 E6.87432
G1 X57.497 Y5.915 E6.90882
G1 X57.967 Y5.835 E6.94322
G1 X60.097 Y5.655 E7.09747
G1 X60.447 Y5.645 E7.12273
G1 X60.787 Y5.665 E7.14731
G1 X132.527 Y12.595 E12.34807
G1 X133.507 Y12.825 E12.42070
G1 X134.377 Y13.325 E12.49311
G1 X135.077 Y14.045 E12.56557
G1 X135.547 Y14.935 E12.63820
G1 X135.757 Y15.915 E12.71052
G1 X142.067 Y111.625 E19.63182
G1 X142.007 Y112.555 E19.69907
G1 X141.707 Y113.445 E19.76684
G1 X136.747 Y123.545 E20.57878
G1 X136.047 Y124.515 E20.66510
G1 X135.057 Y125.205 E20.75217
G1 X133.897 Y125.525 E20.83900
G1 X86.577 Y130.335 E24.27115
G1 X86.217 Y130.355 E24.29716
G1 X11.507 Y130.355 E29.68814
G1 X10.427 Y130.185 E29.76703
G1 X9.457 Y129.705 E29.84512
G1 X8.667 Y128.955 E29.92373
G1 X8.147 Y127.995 E30.00251
G1 X6.787 Y124.245 E30.29035
G1 X6.637 Y123.715 E30.33010
G1 X6.567 Y123.175 E30.36939
G1 X5.917 Y108.025 E31.46360
G1 X5.917 Y96.365 E32.30497
G1 X8.517 Y50.835 E35.59570
G1 X8.787 Y48.085 E35.79510
G1 X8.877 Y47.565 E35.83318
G1 X9.047 Y47.055 E35.87197
G1 X10.077 Y44.605 E36.06374
G1 X10.287 Y44.185 E36.09763
G1 X10.557 Y43.795 E36.13186
G1 X12.457 Y41.375 E36.35387
G1 X14.881 Y39.190 E36.58929
G1 X20.442 Y34.617 F4320.000 E33.73929
G1 F1800.000 E33.58929
G92 E0
G1 X11.619 Y115.283 F5400.000
G1 E3.00000 F1800.000
G1 X87.244 Y115.283 E8.45705 F735.000
G1 X87.244 Y121.568 E8.91062
G1 X86.569 Y121.568 E8.95934
G1 X85.522 Y124.445 E9.18023
G1 X84.475 Y121.568 E9.40113
G1 X81.333 Y121.568 E9.62785
G1 X80.286 Y124.445 E9.84875
G1 X79.239 Y121.568 E10.06965
G1 X76.097 Y121.568 E10.29637
G1 X75.050 Y124.445 E10.51727
G1 X74.003 Y121.568 E10.73818
G1 X70.861 Y121.568 E10.96489
G1 X69.814 Y124.445 E11.18580
G1 X68.767 Y121.568 E11.40670
G1 X65.625 Y121.568 E11.63341
G1 X64.578 Y124.445 E11.85431
G1 X63.531 Y121.568 E12.07520
G1 X60.389 Y121.568 E12.30193
G1 X59.342 Y124.445 E12.52282
G1 X58.295 Y121.568 E12.74371
G1 X55.153 Y121.568 E12.97043
G1 X54.106 Y124.445 E13.19133
G1 X53.059 Y121.568 E13.41222
G1 X49.917 Y121.568 E13.63894
G1 X48.870 Y124.445 E13.85984
G1 X47.823 Y121.568 E14.08074
G1 X44.681 Y121.568 E14.30746
G1 X43.634 Y124.445 E14.52835
G1 X42.587 Y121.568 E14.74925
G1 X39.445 Y121.568 E14.97597
G1 X38.398 Y124.445 E15.19687
G1 X37.351 Y121.568 E15.41776
G1 X34.210 Y121.568 E15.64448
G1 X33.162 Y124.445 E15.86538
G1 X32.115 Y121.568 E16.08628
G1 X28.974 Y121.568 E16.31300
G1 X27.927 Y124.445 E16.53390
G1 X26.879 Y121.568 E16.75480
G1 X23.738 Y121.568 E16.98152
G1 X22.691 Y124.445 E17.20242
G1 X21.644 Y121.568 E17.42331
G1 X18.502 Y121.568 E17.65003
G1 X17.455 Y124.445 E17.87093
G1 X16.408 Y121.568 E18.09182
G1 X13.266 Y121.568 E18.31854
G1 X12.219 Y124.445 E18.53943
G1 X11.619 Y122.797 E18.66596
G1 X11.619 Y115.369 E19.20195
G1 X11.040 Y114.704 F5400.000
G1 X87.823 Y114.704 E24.74249 F735.000
G1 X87.823 Y122.147 E25.27956
G1 X86.974 Y122.147 E25.34079
G1 X85.522 Y126.137 E25.64715
G1 X84.070 Y122.147 E25.95352
G1 X81.739 Y122.147 E26.12177
G1 X80.286 Y126.137 E26.42814
G1 X78.834 Y122.147 E26.73451
G1 X76.503 Y122.147 E26.90277
G1 X75.050 Y126.137 E27.20914
G1 X73.598 Y122.147 E27.51551
G1 X71.267 Y122.147 E27.68376
G1 X69.814 Y126.137 E27.99013
G1 X68.362 Y122.147 E28.29650
G1 X66.031 Y122.147 E28.46475
G1 X64.578 Y126.137 E28.77112
G1 X63.126 Y122.147 E29.07748
G1 X60.795 Y122.147 E29.24574
G1 X59.342 Y126.136 E29.55210
G1 X57.890 Y122.147 E29.85846
G1 X55.559 Y122.147 E30.02672
G1 X54.106 Y126.137 E30.33308
G1 X52.654 Y122.147 E30.63944
G1 X50.323 Y122.147 E30.80770
G1 X48.870 Y126.137 E31.11406
G1 X47.418 Y122.147 E31.42042
G1 X45.087 Y122.147 E31.58868
G1 X43.634 Y126.137 E31.89504
G1 X42.182 Y122.147 E32.20140
G1 X39.851 Y122.147 E32.36966
G1 X38.398 Y126.137 E32.67603
G1 X36.946 Y122.147 E32.98239
G1 X34.615 Y122.147 E33.15064
G1 X33.163 Y126.137 E33.45701
G1 X31.710 Y122.147 E33.76338
G1 X29.379 Y122.147 E33.93163
G1 X27.927 Y126.137 E34.23800
G1 X26.474 Y122.147 E34.54437
G1 X24.143 Y122.147 E34.71262
G1 X22.691 Y126.137 E35.01899
G1 X21.238 Y122.147 E35.32535
G1 X18.907 Y122.147 E35.49361
G1 X17.455 Y126.136 E35.79997
G1 X16.002 Y122.147 E36.10633
G1 X13.671 Y122.147 E36.27459
G1 X12.219 Y126.136 E36.58094
G1 X11.040 Y122.899 E36.82953
G1 X11.040 Y114.791 E37.41462
G1 X10.462 Y114.125 F5400.000
G1 X88.402 Y114.125 E43.03866 F588.000
G1 X88.402 Y122.725 E43.65922
G1 X87.380 Y122.725 E43.73296
G1 X86.015 Y126.475 E44.02093
G1 X85.030 Y126.475 E44.09198
G1 X83.665 Y122.725 E44.37994
G1 X82.144 Y122.725 E44.48973
G1 X80.779 Y126.475 E44.77770
G1 X79.794 Y126.475 E44.84875
G1 X78.429 Y122.725 E45.13671
G1 X76.908 Y122.725 E45.24650
G1 X75.543 Y126.475 E45.53447
G1 X74.558 Y126.475 E45.60552
G1 X73.193 Y122.725 E45.89348
G1 X71.672 Y122.725 E46.00328
G1 X70.307 Y126.475 E46.29124
G1 X69.322 Y126.475 E46.36229
G1 X67.957 Y122.725 E46.65025
G1 X66.436 Y122.725 E46.76005
G1 X65.071 Y126.475 E47.04801
G1 X64.086 Y126.475 E47.11906
G1 X62.721 Y122.725 E47.40702
G1 X61.200 Y122.725 E47.51682
G1 X59.835 Y126.475 E47.80478
G1 X58.850 Y126.475 E47.87582
G1 X57.485 Y122.725 E48.16379
G1 X55.964 Y122.725 E48.27358
G1 X54.599 Y126.475 E48.56154
G1 X53.614 Y126.475 E48.63259
G1 X52.249 Y122.725 E48.92056
G1 X50.728 Y122.725 E49.03035
G1 X49.363 Y126.475 E49.31831
G1 X48.378 Y126.475 E49.38936
G1 X47.013 Y122.725 E49.67732
G1 X45.492 Y122.725 E49.78712
G1 X44.127 Y126.475 E50.07508
G1 X43.142 Y126.475 E50.14613
G1 X41.777 Y122.725 E50.43409
G1 X40.256 Y122.725 E50.54389
G1 X38.891 Y126.475 E50.83185
G1 X37.906 Y126.475 E50.90290
G1 X36.541 Y122.725 E51.19086
G1 X35.020 Y122.725 E51.30065
G1 X33.655 Y126.475 E51.58861
G1 X32.670 Y126.475 E51.65966
G1 X31.305 Y122.725 E51.94762
G1 X29.784 Y122.725 E52.05742
G1 X28.419 Y126.475 E52.34538
G1 X27.434 Y126.475 E52.41643
G1 X26.069 Y122.725 E52.70439
G1 X24.548 Y122.725 E52.81418
G1 X23.183 Y126.475 E53.10215
G1 X22.198 Y126.475 E53.17320
G1 X20.833 Y122.725 E53.46116
G1 X19.312 Y122.725 E53.57096
G1 X17.947 Y126.475 E53.85892
G1 X16.962 Y126.475 E53.92996
G1 X15.597 Y122.725 E54.21792
G1 X14.076 Y122.726 E54.32772
G1 X12.711 Y126.475 E54.61568
G1 X11.726 Y126.475 E54.68673
G1 X10.462 Y123.001 E54.95352
G1 X10.462 Y114.212 E55.58771
G1 X10.963 Y114.415 F5400.000
G1 X18.163 Y114.388 F4320.000 E52.73771
G1 F1800.000 E52.58771
G92 E0
G1 X97.040 Y112.057 F5400.000
G1 E3.00000 F1800.000
G1 X130.627 Y112.057 E5.42356 F735.000
G1 X135.611 Y112.077 E5.78321
G1 X136.553 Y112.539 E5.85891
G1 X132.881 Y120.021 E6.46033
G1 X131.818 Y119.500 E6.54573
G1 X126.320 Y114.579 E7.07813
G1 X101.221 Y114.579 E8.88929
G1 X101.221 Y122.884 E9.48851
G1 X97.040 Y122.884 E9.79018
G1 X97.040 Y112.143 E10.56518
G1 X96.462 Y111.478 F5400.000
G1 X130.628 Y111.478 E13.03057 F735.000
G1 X135.746 Y111.499 E13.39990
G1 X137.327 Y112.274 E13.52696
G1 X133.145 Y120.796 E14.21187
G1 X131.492 Y119.984 E14.34477
G1 X126.099 Y115.158 E14.86697
G1 X101.799 Y115.158 E16.62042
G1 X101.799 Y123.462 E17.21964
G1 X96.462 Y123.462 E17.60481
G1 X96.462 Y111.565 E18.46330
G1 X95.883 Y110.900 F5400.000
G1 X130.629 Y110.900 E20.97053 F588.000
G1 X135.882 Y110.921 E21.34954
G1 X138.101 Y112.010 E21.52794
G1 X133.410 Y121.570 E22.29635
G1 X131.165 Y120.468 E22.47675
G1 X125.878 Y115.736 E22.98875
G1 X102.378 Y115.736 E24.68450
G1 X102.378 Y124.041 E25.28372
G1 X95.883 Y124.041 E25.75238
G1 X95.883 Y110.986 E26.69437
G1 X96.384 Y111.189 F5400.000
G1 X103.584 Y111.128 F4320.000 E23.84437
G1 F1800.000 E23.69437
G92 E0
G1 X121.578 Y91.523 F5400.000
G1 E3.00000 F1800.000
G1 X124.455 Y90.476 E3.22090 F735.000
G1 X124.455 Y87.334 E3.44761
G1 X121.578 Y86.287 E3.66851
G1 X124.455 Y85.240 E3.88941
G1 X124.455 Y82.098 E4.11613
G1 X121.578 Y81.051 E4.33703
G1 X124.455 Y80.004 E4.55794
G1 X124.455 Y76.862 E4.78465
G1 X121.578 Y75.815 E5.00555
G1 X124.455 Y74.768 E5.22646
G1 X124.455 Y71.626 E5.45317
G1 X121.578 Y70.579 E5.67407
G1 X124.455 Y69.532 E5.89496
G1 X124.455 Y66.390 E6.12169
G1 X121.578 Y65.343 E6.34258
G1 X124.455 Y64.296 E6.56347
G1 X124.455 Y61.154 E6.79019
G1 X121.578 Y60.107 E7.01109
G1 X124.455 Y59.060 E7.23198
G1 X124.455 Y55.918 E7.45870
G1 X121.578 Y54.871 E7.67960
G1 X124.455 Y53.824 E7.90049
G1 X124.455 Y50.682 E8.12721
G1 X121.578 Y49.635 E8.34811
G1 X124.455 Y48.588 E8.56901
G1 X124.455 Y45.446 E8.79573
G1 X121.578 Y44.399 E9.01662
G1 X124.455 Y43.352 E9.23752
G1 X124.455 Y40.210 E9.46424
G1 X121.578 Y39.163 E9.68514
G1 X124.455 Y38.116 E9.90604
G1 X124.455 Y34.974 E10.13275
G1 X121.578 Y33.927 E10.35366
G1 X124.455 Y32.880 E10.57456
G1 X124.455 Y29.738 E10.80127
G1 X121.578 Y28.691 E11.02217
G1 X124.455 Y27.644 E11.24307
G1 X124.455 Y24.502 E11.46979
G1 X121.578 Y23.455 E11.69068
G1 X124.455 Y22.408 E11.91157
G1 X124.455 Y19.266 E12.13830
G1 X121.578 Y18.219 E12.35919
G1 X123.226 Y17.619 E12.48572
G1 X130.740 Y17.619 E13.02796
G1 X130.740 Y93.245 E18.48501
G1 X124.455 Y93.245 E18.93859
G1 X124.455 Y92.570 E18.98730
G1 X121.659 Y91.552 E19.20194
G1 X119.886 Y91.523 F5400.000
G1 X123.876 Y90.071 E19.50830 F735.000
G1 X123.876 Y87.739 E19.67656
G1 X119.886 Y86.287 E19.98292
G1 X123.876 Y84.835 E20.28929
G1 X123.876 Y82.503 E20.45754
G1 X119.886 Y81.051 E20.76391
G1 X123.876 Y79.599 E21.07028
G1 X123.876 Y77.267 E21.23853
G1 X119.886 Y75.815 E21.54490
G1 X123.876 Y74.363 E21.85127
G1 X123.876 Y72.031 E22.01952
G1 X119.886 Y70.579 E22.32589
G1 X123.876 Y69.127 E22.63225
G1 X123.876 Y66.795 E22.80051
G1 X119.886 Y65.343 E23.10687
G1 X123.876 Y63.891 E23.41322
G1 X123.876 Y61.559 E23.58148
G1 X119.886 Y60.107 E23.88785
G1 X123.876 Y58.655 E24.19421
G1 X123.876 Y56.323 E24.36246
G1 X119.886 Y54.871 E24.66883
G1 X123.876 Y53.419 E24.97519
G1 X123.876 Y51.087 E25.14345
G1 X119.886 Y49.635 E25.44981
G1 X123.876 Y48.183 E25.75617
G1 X123.876 Y45.851 E25.92443
G1 X119.886 Y44.399 E26.23079
G1 X123.876 Y42.947 E26.53715
G1 X123.876 Y40.615 E26.70541
G1 X119.886 Y39.163 E27.01177
G1 X123.876 Y37.711 E27.31814
G1 X123.876 Y35.379 E27.48639
G1 X119.886 Y33.927 E27.79276
G1 X123.876 Y32.475 E28.09913
G1 X123.876 Y30.143 E28.26739
G1 X119.886 Y28.691 E28.57375
G1 X123.876 Y27.239 E28.88012
G1 X123.876 Y24.907 E29.04838
G1 X119.886 Y23.455 E29.35474
G1 X123.876 Y22.003 E29.66109
G1 X123.876 Y19.671 E29.82935
G1 X119.886 Y18.219 E30.13571
G1 X123.124 Y17.041 E30.38430
G1 X131.319 Y17.041 E30.97565
G1 X131.319 Y93.823 E36.51619
G1 X123.876 Y93.823 E37.05326
G1 X123.876 Y92.975 E37.11449
G1 X119.968 Y91.552 E37.41460
G1 X119.547 Y92.015 F5400.000
G1 X119.547 Y91.030 E37.48565 F588.000
G1 X123.297 Y89.665 E37.77361
G1 X123.297 Y88.144 E37.88340
G1 X119.547 Y86.779 E38.17136
G1 X119.547 Y85.794 E38.24241
G1 X123.297 Y84.429 E38.53038
G1 X123.297 Y82.908 E38.64017
G1 X119.547 Y81.543 E38.92813
G1 X119.547 Y80.558 E38.99918
G1 X123.297 Y79.193 E39.28714
G1 X123.297 Y77.672 E39.39693
G1 X119.547 Y76.307 E39.68490
G1 X119.547 Y75.322 E39.75595
G1 X123.297 Y73.957 E40.04391
G1 X123.297 Y72.436 E40.15370
G1 X119.547 Y71.071 E40.44166
G1 X119.547 Y70.086 E40.51271
G1 X123.297 Y68.722 E40.80067
G1 X123.297 Y67.200 E40.91047
G1 X119.547 Y65.835 E41.19843
G1 X119.547 Y64.850 E41.26948
G1 X123.297 Y63.486 E41.55744
G1 X123.297 Y61.964 E41.66724
G1 X119.547 Y60.599 E41.95520
G1 X119.547 Y59.614 E42.02625
G1 X123.297 Y58.250 E42.31421
G1 X123.297 Y56.728 E42.42400
G1 X119.547 Y55.363 E42.71196
G1 X119.547 Y54.378 E42.78301
G1 X123.297 Y53.014 E43.07098
G1 X123.297 Y51.492 E43.18077
G1 X119.547 Y50.127 E43.46873
G1 X119.547 Y49.142 E43.53978
G1 X123.297 Y47.778 E43.82774
G1 X123.297 Y46.256 E43.93754
G1 X119.547 Y44.891 E44.22550
G1 X119.547 Y43.906 E44.29655
G1 X123.297 Y42.542 E44.58451
G1 X123.297 Y41.020 E44.69430
G1 X119.547 Y39.655 E44.98226
G1 X119.547 Y38.670 E45.05331
G1 X123.297 Y37.306 E45.34128
G1 X123.297 Y35.784 E45.45107
G1 X119.547 Y34.419 E45.73903
G1 X119.547 Y33.434 E45.81008
G1 X123.297 Y32.070 E46.09804
G1 X123.297 Y30.548 E46.20784
G1 X119.547 Y29.183 E46.49580
G1 X119.547 Y28.198 E46.56685
G1 X123.297 Y26.834 E46.85481
G1 X123.297 Y25.312 E46.96461
G1 X119.547 Y23.947 E47.25257
G1 X119.547 Y22.963 E47.32361
G1 X123.297 Y21.598 E47.61158
G1 X123.297 Y20.076 E47.72138
G1 X119.547 Y18.711 E48.00934
G1 X119.547 Y17.727 E48.08038
G1 X123.022 Y16.462 E48.34717
G1 X131.897 Y16.462 E48.98763
G1 X131.897 Y94.402 E54.61166
G1 X123.298 Y94.402 E55.23223
G1 X123.298 Y93.380 E55.30597
G1 X119.629 Y92.045 E55.58767
G1 X119.893 Y91.551 F5400.000
G1 X119.547 Y91.030 F4320.000 E55.34036
G1 X123.297 Y89.665 F4320.000 E53.76071
G1 X123.297 Y88.144 F4320.000 E53.15844
G1 X122.299 Y87.780 F4320.000 E52.73767
G1 F1800.000 E52.58767
G92 E0
G1 X87.323 Y25.705 F5400.000
G1 E3.00000 F1800.000
G1 X86.711 Y25.890 E3.04616 F630.000
G1 X86.073 Y25.953 E3.09238
G1 X85.438 Y25.891 E3.13847
G1 X84.825 Y25.705 E3.18466
G1 X84.261 Y25.403 E3.23083
G1 X83.766 Y24.997 E3.27703
G1 X83.360 Y24.503 E3.32319
G1 X83.058 Y23.938 E3.36937
G1 X82.873 Y23.326 E3.41557
G1 X82.810 Y22.689 E3.46170
G1 X82.873 Y22.053 E3.50784
G1 X83.058 Y21.440 E3.55403
G1 X83.360 Y20.876 E3.60021
G1 X83.766 Y20.381 E3.64640
G1 X84.261 Y19.976 E3.69257
G1 X84.825 Y19.674 E3.73875
G1 X85.438 Y19.488 E3.78496
G1 X86.073 Y19.425 E3.83102
G1 X86.711 Y19.488 E3.87725
G1 X87.323 Y19.674 E3.92341
G1 X87.887 Y19.975 E3.96959
G1 X88.382 Y20.381 E4.01575
G1 X88.788 Y20.876 E4.06194
G1 X89.090 Y21.440 E4.10812
G1 X89.275 Y22.053 E4.15428
G1 X89.339 Y22.689 E4.20044
G1 X89.275 Y23.326 E4.24663
G1 X89.090 Y23.938 E4.29279
G1 X88.788 Y24.503 E4.33897
G1 X88.382 Y24.997 E4.38514
G1 X87.887 Y25.403 E4.43132
G1 X87.400 Y25.664 E4.47124
G1 X87.101 Y25.168 F5400.000
G1 X86.598 Y25.320 E4.50918 F630.000
G1 X86.074 Y25.372 E4.54716
G1 X85.551 Y25.320 E4.58505
G1 X85.048 Y25.168 E4.62301
G1 X84.584 Y24.920 E4.66097
G1 X84.177 Y24.586 E4.69893
G1 X83.844 Y24.180 E4.73687
G1 X83.595 Y23.716 E4.77483
G1 X83.443 Y23.212 E4.81279
G1 X83.391 Y22.689 E4.85071
G1 X83.443 Y22.166 E4.88864
G1 X83.595 Y21.663 E4.92660
G1 X83.844 Y21.199 E4.96456
G1 X84.177 Y20.792 E5.00251
G1 X84.584 Y20.459 E5.04046
G1 X85.048 Y20.211 E5.07842
G1 X85.551 Y20.058 E5.11639
G1 X86.074 Y20.007 E5.15427
G1 X86.597 Y20.058 E5.19225
G1 X87.101 Y20.211 E5.23019
G1 X87.565 Y20.459 E5.26814
G1 X87.971 Y20.792 E5.30609
G1 X88.305 Y21.199 E5.34405
G1 X88.553 Y21.663 E5.38201
G1 X88.705 Y22.166 E5.41994
G1 X88.757 Y22.689 E5.45789
G1 X88.705 Y23.213 E5.49584
G1 X88.553 Y23.716 E5.53378
G1 X88.305 Y24.180 E5.57174
G1 X87.971 Y24.586 E5.60968
G1 X87.565 Y24.920 E5.64764
G1 X87.177 Y25.127 E5.67933
G1 X86.878 Y24.631 F5400.000
G1 X86.484 Y24.750 E5.70905 F630.000
G1 X86.074 Y24.791 E5.73879
G1 X85.664 Y24.750 E5.76849
G1 X85.270 Y24.631 E5.79822
G1 X84.907 Y24.436 E5.82795
G1 X84.588 Y24.175 E5.85768
G1 X84.327 Y23.857 E5.88740
G1 X84.133 Y23.493 E5.91714
G1 X84.013 Y23.099 E5.94686
G1 X83.973 Y22.689 E5.97658
G1 X84.013 Y22.280 E6.00629
G1 X84.133 Y21.885 E6.03602
G1 X84.327 Y21.522 E6.06575
G1 X84.588 Y21.203 E6.09548
G1 X84.907 Y20.942 E6.12520
G1 X85.270 Y20.748 E6.15494
G1 X85.664 Y20.628 E6.18467
