; generated by Slic3r 1.0.0RC2 on 2014-06-05 at 00:08:07

; layer_height = 0.3
; perimeters = 3
; top_solid_layers = 3
; bottom_solid_layers = 3
; fill_density = 0.3
; perimeter_speed = 35
; infill_speed = 45
; travel_speed = 90
; nozzle_diameter = 0.5
; filament_diameter = 1.75
; extrusion_multiplier = 1
; perimeters extrusion width = 0.50mm
; infill extrusion width = 0.70mm
; solid infill extrusion width = 0.70mm
; top infill extrusion width = 0.70mm
; first layer extrusion width = 0.60mm

G21 ; set units to millimeters
M109 S200;set extruder temp and start heating
G28 X0 Y0 Z0;home X and Y and Z
G29 ;probe bed
G90; set absolute coordinates
G92 E0; reset extruder distance
G1 Z3 F3000; get out of the bed after probe
G1 X10 Y10 F3000 ; move to back right corner
G90 ; use absolute coordinates
G92 E0
M82 ; use absolute distances for extrusion
M106 S204
G1 F1800.000 E-3.00000
G92 E0
G1 Z0.300 F5400.000
G1 X12.449 Y20.637 F5400.000
G1 E3.00000 F1800.000
G1 X13.389 Y20.237 E3.07371 F735.000
G1 X34.319 Y14.697 E4.63601
G1 X35.149 Y14.497 E4.69761
G1 X74.619 Y6.587 E7.60235
G1 X74.959 Y6.537 E7.62714
G1 X75.299 Y6.517 E7.65172
G1 X107.919 Y6.377 E10.00556
G1 X117.139 Y6.387 E10.67086
G1 X118.069 Y6.507 E10.73852
G1 X118.929 Y6.867 E10.80580
G1 X119.669 Y7.437 E10.87320
G1 X120.239 Y8.177 E10.94060
G1 X120.599 Y9.037 E11.00788
G1 X120.719 Y9.967 E11.07554
G1 X120.719 Y88.517 E16.74360
G1 X120.649 Y130.147 E19.74757
G1 X120.619 Y130.567 E19.77796
G1 X120.539 Y130.997 E19.80952
G1 X120.059 Y132.947 E19.95443
G1 X119.719 Y133.827 E20.02250
G1 X119.149 Y134.587 E20.09105
G1 X118.399 Y135.167 E20.15947
G1 X117.529 Y135.537 E20.22769
G1 X116.589 Y135.667 E20.29616
G1 X106.969 Y135.667 E20.99033
G1 X14.029 Y131.677 E27.70293
G1 X13.049 Y131.487 E27.77496
G1 X12.159 Y131.047 E27.84661
G1 X11.419 Y130.377 E27.91864
G1 X10.899 Y129.527 E27.99054
G1 X10.629 Y128.567 E28.06250
G1 X9.009 Y116.467 E28.94341
G1 X8.979 Y116.117 E28.96876
G1 X7.279 Y66.207 E32.57229
G1 X7.289 Y65.837 E32.59899
G1 X10.239 Y23.997 E35.62561
G1 X10.519 Y22.837 E35.71172
G1 X11.159 Y21.837 E35.79739
G1 X11.659 Y21.287 E35.85102
G1 X12.382 Y20.692 E35.91858
G1 X13.389 Y20.237 F4320.000 E35.48115
G1 X19.281 Y18.677 F4320.000 E33.06858
G1 F1800.000 E32.91858
G92 E0
G1 X112.214 Y96.916 F5400.000
G1 E3.00000 F1800.000
G1 X112.274 Y96.844 E3.00673 F630.000
G1 X112.966 Y96.328 E3.06903
G1 X113.478 Y96.206 E3.10702
G1 X114.048 Y96.220 E3.14813
G1 X114.538 Y96.396 E3.18569
G1 X115.013 Y96.729 E3.22757
G1 X115.323 Y97.147 E3.26514
G1 X115.359 Y97.226 E3.27137
G1 X115.529 Y97.677 E3.30620
G1 X115.572 Y98.062 E3.33414
G1 X115.481 Y98.615 E3.37453
G1 X115.145 Y99.241 E3.42580
G1 X114.605 Y99.691 E3.47655
G1 X114.531 Y99.730 E3.48257
G1 X113.696 Y99.941 E3.54475
G1 X113.175 Y99.859 E3.58275
G1 X112.653 Y99.629 E3.62392
G1 X112.268 Y99.278 E3.66155
G1 X112.217 Y99.207 E3.66779
G1 X111.962 Y98.798 E3.70260
G1 X111.849 Y98.438 E3.72984
G1 X111.839 Y98.341 E3.73686
G1 X111.939 Y97.370 E3.80732
G1 X112.174 Y96.992 E3.83941
G1 X112.177 Y96.830 F5400.000
G1 X111.606 Y110.184 F5400.000
G1 X112.185 Y110.241 E3.88136 F630.000
G1 X112.741 Y110.409 E3.92329
G1 X113.254 Y110.683 E3.96522
G1 X113.703 Y111.052 E4.00716
G1 X114.071 Y111.501 E4.04909
G1 X114.346 Y112.014 E4.09102
G1 X114.514 Y112.570 E4.13295
G1 X114.571 Y113.148 E4.17486
G1 X114.514 Y113.726 E4.21680
G1 X114.346 Y114.282 E4.25872
G1 X114.071 Y114.794 E4.30065
G1 X113.703 Y115.244 E4.34258
G1 X113.254 Y115.612 E4.38452
G1 X112.741 Y115.887 E4.42645
G1 X112.118 Y116.075 E4.47343
G1 X111.606 Y116.112 E4.51044
G1 X111.029 Y116.055 E4.55230
G1 X110.473 Y115.887 E4.59425
G1 X109.960 Y115.612 E4.63619
G1 X109.511 Y115.244 E4.67812
G1 X109.142 Y114.795 E4.72005
G1 X108.868 Y114.282 E4.76200
G1 X108.700 Y113.726 E4.80394
G1 X108.643 Y113.148 E4.84583
G1 X108.700 Y112.570 E4.88772
G1 X108.868 Y112.014 E4.92968
G1 X109.142 Y111.501 E4.97160
G1 X109.511 Y111.052 E5.01355
G1 X109.960 Y110.684 E5.05547
G1 X110.473 Y110.409 E5.09741
G1 X111.029 Y110.241 E5.13938
G1 X111.520 Y110.192 E5.17496
G1 X111.607 Y110.765 F5400.000
G1 X112.072 Y110.811 E5.20868 F630.000
G1 X112.519 Y110.946 E5.24238
G1 X112.931 Y111.167 E5.27609
G1 X113.292 Y111.463 E5.30980
G1 X113.588 Y111.824 E5.34351
G1 X113.809 Y112.236 E5.37722
G1 X113.944 Y112.683 E5.41092
G1 X113.990 Y113.148 E5.44462
G1 X113.944 Y113.613 E5.47833
G1 X113.808 Y114.060 E5.51202
G1 X113.588 Y114.472 E5.54573
G1 X113.292 Y114.833 E5.57944
G1 X112.931 Y115.129 E5.61315
G1 X112.519 Y115.349 E5.64686
G1 X112.032 Y115.497 E5.68353
G1 X111.607 Y115.531 E5.71435
G1 X111.142 Y115.485 E5.74801
G1 X110.695 Y115.349 E5.78172
G1 X110.283 Y115.129 E5.81544
G1 X109.922 Y114.833 E5.84915
G1 X109.626 Y114.472 E5.88285
G1 X109.405 Y114.060 E5.91657
G1 X109.270 Y113.612 E5.95028
G1 X109.224 Y113.148 E5.98396
G1 X109.270 Y112.683 E6.01764
G1 X109.405 Y112.236 E6.05136
G1 X109.626 Y111.824 E6.08507
G1 X109.922 Y111.463 E6.11878
G1 X110.283 Y111.167 E6.15248
G1 X110.695 Y110.946 E6.18620
G1 X111.143 Y110.811 E6.21993
G1 X111.520 Y110.774 E6.24732
G1 X111.607 Y111.346 F5400.000
G1 X111.958 Y111.381 E6.27281 F630.000
G1 X112.296 Y111.484 E6.29828
G1 X112.608 Y111.650 E6.32378
G1 X112.881 Y111.874 E6.34926
G1 X113.105 Y112.147 E6.37474
G1 X113.271 Y112.459 E6.40023
G1 X113.374 Y112.797 E6.42571
G1 X113.409 Y113.148 E6.45118
G1 X113.374 Y113.499 E6.47666
G1 X113.271 Y113.837 E6.50214
G1 X113.105 Y114.149 E6.52763
G1 X112.881 Y114.422 E6.55311
G1 X112.608 Y114.646 E6.57859
G1 X112.296 Y114.812 E6.60408
G1 X111.947 Y114.918 E6.63043
G1 X111.607 Y114.949 E6.65506
G1 X111.256 Y114.915 E6.68053
G1 X110.918 Y114.812 E6.70601
G1 X110.606 Y114.646 E6.73150
G1 X110.333 Y114.422 E6.75698
G1 X110.109 Y114.149 E6.78246
G1 X109.943 Y113.837 E6.80795
G1 X109.840 Y113.499 E6.83343
G1 X109.806 Y113.148 E6.85890
G1 X109.840 Y112.797 E6.88437
G1 X109.943 Y112.459 E6.90986
G1 X110.109 Y112.147 E6.93535
G1 X110.333 Y111.874 E6.96083
G1 X110.606 Y111.650 E6.98631
G1 X110.918 Y111.484 E7.01180
G1 X111.256 Y111.381 E7.03729
G1 X111.521 Y111.355 E7.05649
G1 X111.793 Y111.047 F5400.000
G1 X111.958 Y111.381 F4320.000 E6.90879
G1 X112.296 Y111.484 F4320.000 E6.76903
G1 X112.608 Y111.650 F4320.000 E6.62920
G1 X112.881 Y111.874 F4320.000 E6.48942
G1 X113.105 Y112.147 F4320.000 E6.34964
G1 X113.271 Y112.459 F4320.000 E6.20982
G1 X113.374 Y112.797 F4320.000 E6.07005
G1 X113.409 Y113.148 F4320.000 E5.93030
G1 X113.374 Y113.499 F4320.000 E5.79052
G1 X113.271 Y113.837 F4320.000 E5.65078
G1 X113.105 Y114.149 F4320.000 E5.51095
G1 X112.881 Y114.422 F4320.000 E5.37117
G1 X112.608 Y114.646 F4320.000 E5.23139
G1 X112.296 Y114.812 F4320.000 E5.09156
G1 X111.947 Y114.918 F4320.000 E4.94700
G1 X111.607 Y114.949 F4320.000 E4.81191
G1 X111.256 Y114.915 F4320.000 E4.67221
G1 X110.918 Y114.812 F4320.000 E4.53243
G1 X110.606 Y114.646 F4320.000 E4.39258
G1 X110.333 Y114.422 F4320.000 E4.25281
G1 X110.259 Y114.331 F4320.000 E4.20649
G1 F1800.000 E4.05649
G92 E0
G1 X113.386 Y126.730 F5400.000
G1 E3.00000 F1800.000
G1 X113.896 Y126.710 E3.03683 F630.000
G1 X114.452 Y126.835 E3.07794
G1 X114.899 Y127.102 E3.11552
G1 X115.300 Y127.521 E3.15735
G1 X115.528 Y128.000 E3.19565
G1 X115.623 Y128.558 E3.23651
G1 X115.584 Y128.949 E3.26485
G1 X115.388 Y129.468 E3.30493
G1 X114.828 Y130.103 E3.36600
G1 X114.737 Y130.159 E3.37373
G1 X114.099 Y130.415 E3.42329
G1 X113.590 Y130.434 E3.46007
G1 X113.033 Y130.311 E3.50125
G1 X112.587 Y130.044 E3.53875
G1 X112.185 Y129.625 E3.58065
G1 X111.963 Y129.154 E3.61820
G1 X111.942 Y129.064 E3.62486
G1 X111.864 Y128.593 E3.65931
G1 X111.898 Y128.206 E3.68735
G1 X112.097 Y127.676 E3.72822
G1 X112.674 Y127.022 E3.79114
G1 X113.303 Y126.755 E3.84043
G1 X113.569 Y126.254 F5400.000
G1 X113.896 Y126.710 F4320.000 E3.61832
G1 X114.452 Y126.835 F4320.000 E3.39276
G1 X114.899 Y127.102 F4320.000 E3.18664
G1 X115.300 Y127.521 F4320.000 E2.95718
G1 X115.528 Y128.000 F4320.000 E2.74706
G1 X115.623 Y128.558 F4320.000 E2.52291
G1 X115.584 Y128.949 F4320.000 E2.36748
G1 X115.388 Y129.468 F4320.000 E2.14758
G1 X114.828 Y130.103 F4320.000 E1.81261
G1 X114.737 Y130.159 F4320.000 E1.77018
G1 X114.099 Y130.415 F4320.000 E1.49833
G1 X113.590 Y130.434 F4320.000 E1.29656
G1 X113.033 Y130.311 F4320.000 E1.07066
G1 X112.859 Y130.206 F4320.000 E0.99043
G1 F1800.000 E0.84043
G92 E0
G1 X116.074 Y129.568 F5400.000
G1 E3.00000 F1800.000
G1 X116.281 Y129.677 E3.01687 F630.000
G1 X115.905 Y131.214 E3.13109
G1 X114.493 Y131.214 E3.23301
G1 X114.439 Y131.024 E3.24729
G1 X115.214 Y130.544 E3.31310
G1 X116.016 Y129.633 E3.40069
G1 X116.070 Y96.773 F5400.000
G1 X114.540 Y95.679 E3.53641 F630.000
G1 X114.590 Y95.523 E3.54826
G1 X115.765 Y95.523 E3.63302
G1 X116.050 Y96.689 E3.71963
G1 X115.615 Y100.466 F5400.000
G1 X115.615 Y126.194 E5.57613 F735.000
G1 X114.900 Y125.751 E5.63680
G1 X114.203 Y125.588 E5.68846
G1 X113.935 Y125.544 E5.70806
G1 X113.195 Y125.578 E5.76149
G1 X112.807 Y125.697 E5.79077
G1 X112.719 Y125.751 E5.79825
G1 X111.964 Y126.063 E5.85716
G1 X111.090 Y127.067 E5.95323
G1 X110.748 Y127.977 E6.02334
G1 X110.697 Y128.630 E6.07066
G1 X110.806 Y129.291 E6.11898
G1 X110.880 Y129.604 E6.14218
G1 X110.973 Y129.754 E6.15493
G1 X111.372 Y130.636 E6.22475
G1 X108.583 Y130.636 E6.42595
G1 X108.583 Y122.654 E7.00191
G1 X107.602 Y113.369 E7.67566
G1 X108.583 Y104.083 E8.34942
G1 X108.583 Y96.101 E8.92538
G1 X111.365 Y96.101 E9.12611
G1 X110.814 Y96.988 E9.20144
G1 X110.673 Y98.303 E9.29691
G1 X110.713 Y98.704 E9.32596
G1 X110.899 Y99.280 E9.36966
G1 X111.255 Y99.851 E9.41821
G1 X111.438 Y100.107 E9.44095
G1 X111.579 Y100.208 E9.45343
G1 X112.003 Y100.605 E9.49532
G1 X112.662 Y100.902 E9.54751
G1 X112.913 Y100.996 E9.56682
G1 X113.716 Y101.117 E9.62541
G1 X114.051 Y101.050 E9.65009
G1 X114.953 Y100.816 E9.71730
G1 X115.538 Y100.506 E9.76508
G1 X115.018 Y100.100 F5400.000
G1 X115.610 Y99.598 E9.82113 F735.000
G1 X115.969 Y98.929 E9.87588
G1 X116.193 Y98.986 E9.89258
G1 X116.193 Y127.627 E11.95932
G1 X115.224 Y126.614 E12.06048
G1 X115.113 Y126.564 E12.06924
G1 X114.676 Y126.293 E12.10639
G1 X113.915 Y126.127 E12.16257
G1 X113.290 Y126.154 E12.20769
G1 X113.048 Y126.228 E12.22599
G1 X112.319 Y126.542 E12.28326
G1 X111.594 Y127.372 E12.36276
G1 X111.323 Y128.091 E12.41825
G1 X111.281 Y128.612 E12.45593
G1 X111.421 Y129.379 E12.51222
G1 X111.484 Y129.481 E12.52085
G1 X111.697 Y129.951 E12.55811
G1 X112.262 Y130.532 E12.61655
G1 X112.372 Y130.581 E12.62523
G1 X113.086 Y131.025 E12.68594
G1 X113.032 Y131.214 E12.70017
G1 X108.005 Y131.214 E13.06294
G1 X108.005 Y122.684 E13.67845
G1 X107.020 Y113.369 E14.35442
G1 X108.005 Y104.053 E15.03038
G1 X108.005 Y95.523 E15.64589
G1 X112.825 Y95.523 E15.99367
G1 X112.873 Y95.667 E16.00463
G1 X111.871 Y96.423 E16.09523
G1 X111.719 Y96.607 E16.11242
G1 X111.376 Y97.179 E16.16053
G1 X111.256 Y98.322 E16.24349
G1 X111.281 Y98.571 E16.26152
G1 X111.430 Y99.039 E16.29699
G1 X111.853 Y99.693 E16.35314
G1 X112.328 Y100.117 E16.39910
G1 X113.044 Y100.427 E16.45542
G1 X113.706 Y100.529 E16.50371
G1 X114.742 Y100.273 E16.58074
G1 X114.951 Y100.155 E16.59802
G1 X116.772 Y97.207 F5400.000
G1 X116.772 Y130.105 E18.97190 F588.000
G1 X116.360 Y131.793 E19.09727
G1 X107.426 Y131.793 E19.74188
G1 X107.426 Y122.715 E20.39694
G1 X106.439 Y113.369 E21.07511
G1 X107.426 Y104.022 E21.75329
G1 X107.426 Y94.944 E22.40835
G1 X116.219 Y94.944 E23.04283
G1 X116.751 Y97.123 E23.20464
G1 X116.295 Y97.535 F5400.000
G1 X116.401 Y104.735 F4320.000 E20.35464
G1 F1800.000 E20.20464
G92 E0
G1 X90.949 Y122.318 F5400.000
G1 E3.00000 F1800.000
G1 X90.949 Y126.649 E3.31248 F735.000
G1 X67.550 Y126.649 E5.00089
G1 X67.550 Y125.425 E5.08918
G1 X67.500 Y124.906 E5.12679
G1 X67.334 Y124.339 E5.16947
G1 X67.063 Y123.812 E5.21224
G1 X66.694 Y123.346 E5.25512
G1 X66.240 Y122.959 E5.29814
G1 X65.717 Y122.670 E5.34129
G1 X65.145 Y122.490 E5.38453
G1 X64.548 Y122.429 E5.42783
G1 X63.951 Y122.490 E5.47114
G1 X63.379 Y122.670 E5.51440
G1 X62.857 Y122.959 E5.55752
G1 X62.403 Y123.346 E5.60054
G1 X61.766 Y124.151 E5.67460
G1 X61.537 Y122.835 E5.77098
G1 X61.173 Y122.156 E5.82654
G1 X60.672 Y121.627 E5.87911
G1 X59.553 Y120.855 E5.97720
G1 X59.604 Y120.690 E5.98966
G1 X85.912 Y120.690 E7.88799
G1 X90.866 Y122.292 E8.26369
G1 X55.177 Y120.855 F5400.000
G1 X54.058 Y121.627 E8.36178 F735.000
G1 X53.557 Y122.156 E8.41435
G1 X53.193 Y122.835 E8.46992
G1 X53.077 Y123.502 E8.51878
G1 X53.074 Y125.860 E8.68894
G1 X52.576 Y125.884 E8.72492
G1 X52.483 Y124.906 E8.79574
G1 X52.317 Y124.339 E8.83843
G1 X52.046 Y123.812 E8.88119
G1 X51.677 Y123.346 E8.92408
G1 X51.223 Y122.960 E8.96709
G1 X50.700 Y122.670 E9.01025
G1 X50.128 Y122.490 E9.05348
G1 X49.531 Y122.429 E9.09679
G1 X48.934 Y122.490 E9.14010
G1 X48.363 Y122.670 E9.18333
G1 X47.840 Y122.960 E9.22648
G1 X47.386 Y123.346 E9.26950
G1 X47.017 Y123.812 E9.31239
G1 X46.745 Y124.339 E9.35516
G1 X46.579 Y124.907 E9.39784
G1 X46.530 Y125.426 E9.43546
G1 X46.529 Y126.649 E9.52373
G1 X15.638 Y126.649 E11.75279
G1 X15.638 Y120.690 E12.18276
G1 X55.125 Y120.690 E15.03211
G1 X55.151 Y120.772 E15.03831
G1 X55.478 Y121.474 F5400.000
G1 X54.926 Y121.731 E15.08228 F735.000
G1 X54.436 Y122.068 E15.12519
G1 X54.031 Y122.498 E15.16780
G1 X53.747 Y123.026 E15.21107
G1 X53.656 Y123.552 E15.24962
G1 X53.651 Y127.227 E15.51481
G1 X51.955 Y127.227 E15.63717
G1 X51.954 Y125.453 E15.76521
G1 X51.913 Y125.016 E15.79688
G1 X51.778 Y124.554 E15.83158
G1 X51.557 Y124.127 E15.86629
G1 X51.259 Y123.750 E15.90102
G1 X50.892 Y123.438 E15.93576
G1 X50.471 Y123.204 E15.97052
G1 X50.011 Y123.059 E16.00529
G1 X49.531 Y123.010 E16.04008
G1 X49.052 Y123.059 E16.07487
G1 X48.592 Y123.204 E16.10964
G1 X48.171 Y123.438 E16.14441
G1 X47.804 Y123.750 E16.17915
G1 X47.505 Y124.127 E16.21387
G1 X47.285 Y124.555 E16.24858
G1 X47.150 Y125.016 E16.28329
G1 X47.108 Y125.453 E16.31496
G1 X47.107 Y127.227 E16.44300
G1 X15.059 Y127.227 E18.75552
G1 X15.059 Y120.112 E19.26898
G1 X86.003 Y120.112 E24.38819
G1 X91.527 Y121.897 E24.80711
G1 X91.527 Y127.227 E25.19172
G1 X66.972 Y127.227 E26.96359
G1 X66.971 Y125.453 E27.09164
G1 X66.930 Y125.016 E27.12330
G1 X66.794 Y124.554 E27.15800
G1 X66.574 Y124.127 E27.19272
G1 X66.275 Y123.750 E27.22744
G1 X65.909 Y123.437 E27.26218
G1 X65.487 Y123.204 E27.29695
G1 X65.028 Y123.059 E27.33172
G1 X64.548 Y123.010 E27.36650
G1 X64.069 Y123.059 E27.40129
G1 X63.609 Y123.204 E27.43608
G1 X63.188 Y123.437 E27.47082
G1 X62.821 Y123.750 E27.50557
G1 X62.522 Y124.127 E27.54029
G1 X62.302 Y124.555 E27.57501
G1 X62.167 Y125.016 E27.60971
G1 X62.125 Y125.453 E27.64138
G1 X62.124 Y127.227 E27.76942
G1 X61.079 Y127.227 E27.84486
G1 X61.074 Y123.552 E28.11004
G1 X60.983 Y123.026 E28.14859
G1 X60.699 Y122.498 E28.19186
G1 X60.294 Y122.068 E28.23447
G1 X59.804 Y121.731 E28.27738
G1 X59.251 Y121.474 E28.32136
G1 X58.650 Y121.293 E28.36665
G1 X58.016 Y121.184 E28.41308
G1 X57.365 Y121.147 E28.46016
G1 X56.714 Y121.184 E28.50723
G1 X56.079 Y121.293 E28.55366
G1 X55.562 Y121.449 E28.59270
G1 X55.718 Y122.006 F5400.000
G1 X55.214 Y122.235 E28.63261 F588.000
G1 X54.815 Y122.510 E28.66758
G1 X54.504 Y122.839 E28.70023
G1 X54.301 Y123.217 E28.73121
G1 X54.234 Y123.603 E28.75944
G1 X54.229 Y127.806 E29.06274
G1 X51.377 Y127.806 E29.26852
G1 X51.376 Y125.481 E29.43631
G1 X51.342 Y125.126 E29.46204
G1 X51.238 Y124.770 E29.48876
G1 X51.069 Y124.442 E29.51542
G1 X50.840 Y124.153 E29.54198
G1 X50.561 Y123.915 E29.56845
G1 X50.241 Y123.738 E29.59482
G1 X49.894 Y123.629 E29.62113
G1 X49.531 Y123.592 E29.64740
G1 X49.169 Y123.629 E29.67367
G1 X48.821 Y123.738 E29.69997
G1 X48.502 Y123.915 E29.72635
G1 X48.222 Y124.153 E29.75282
G1 X47.994 Y124.442 E29.77938
G1 X47.825 Y124.770 E29.80604
G1 X47.721 Y125.126 E29.83276
G1 X47.687 Y125.481 E29.85849
G1 X47.685 Y127.806 E30.02628
G1 X14.481 Y127.806 E32.42227
G1 X14.481 Y119.533 E33.01922
G1 X86.094 Y119.533 E38.18676
G1 X92.106 Y121.476 E38.64264
G1 X92.106 Y127.806 E39.09937
G1 X66.394 Y127.806 E40.95471
G1 X66.393 Y125.481 E41.12251
G1 X66.359 Y125.126 E41.14823
G1 X66.255 Y124.770 E41.17496
G1 X66.086 Y124.442 E41.20161
